!!!!SEGMENT: pl-cz--iii-699--001_volckmer-augustin--litaniae-lauretanae-g-kyrie-eleison.krn
!!!cenid: 17xx:1132
!!!COM: Volckmer, Augustin
!!!COM-rismID: pe30020656
!!!CDT: 1755-~1820
!!!CNT:
!!!OPR: Litaniae Lauretanae G
!!!OTL: Kyrie eleison
!!!OMV: 001
!!!PDT:
!!!AGN: Sacred; Mass
!!!SMS-siglum: PL-CZ
!!!SMS-shelfmark: III-699
!!!SMS-shelfwork: 001-001 M
!!!SMS-variant:
!!!SMS-altvar:
!!!NIFC-rismSourceID: 300001386
!!!NIFC-islandoraID: pl-cz:40634
!!!URL-pdf-islandora: https://repozytorium.nifc.pl/islandora/object/pl-cz%3A40634/datastream/PDF/view
!!!URL-scan:
!!!ONB-nifc: UWAGA: części Litanii: Kyrie eleison, Mater Christi, Salus infirmorum, Regina angelorum, Agnus Dei
!!!AIN: 1 alto 1 bass 2 cor 2 flt 1 organ 1 soprn 1 tenor 1 viola 2 violn
!!!key: G
**kern	**dynam	**fb	**kern	**kern	**dynam	**kern	**dynam	**kern	**text	**dynam	**kern	**text	**dynam	**kern	**text	**dynam	**kern	**text	**dynam	**kern	**dynam	**kern	**dynam	**kern	**dynam	**kern	**dynam
*part12	*part12	*	*part11	*part10	*part10	*part9	*part9	*part8	*part8	*part8	*part7	*part7	*part7	*part6	*part6	*part6	*part5	*part5	*part5	*part4	*part4	*part3	*part3	*part2	*part2	*part1	*part1
*staff12	*	*	*staff11	*staff10	*	*staff9	*	*staff8	*staff8	*	*staff7	*staff7	*	*staff6	*staff6	*	*staff5	*staff5	*	*staff4	*	*staff3	*	*staff2	*	*staff1	*
*group	*group	*	*group4	*group4	*group4	*group4	*group4	*group3	*group3	*group3	*group3	*group3	*group3	*group3	*group3	*group3	*group3	*group3	*group3	*group2	*group2	*group2	*group2	*group1	*group1	*group1	*group1
*I"Organo.	*	*	*I"Alto-Viola-Obligat	*I"Violino Secundo	*	*I"Violino Primo	*	*I"Baſso.	*	*	*I"Tenore.	*	*	*I"Alto	*	*	*I"Canto	*	*	*I"Cornu Secundo ex G	*	*I"Cornu. Primo. ex G	*	*I"Flauto. Secundo.	*	*I"Flauto. Primo.	*
*I'org	*	*	*I'vla	*I'vl 2	*	*I'vl 1	*	*I'B	*	*	*I'T	*	*	*I'A	*	*	*I'S	*	*	*I'cor 2 in G	*	*I'cor 1 in G	*	*I'fl 2	*	*I'fl 1	*
*Iorgan	*	*	*Iviola	*Ivioln	*	*Ivioln	*	*Ibass	*	*	*Itenor	*	*	*Ialto	*	*	*Isoprn	*	*	*Icor	*	*Icor	*	*Iflt	*	*Iflt	*
*ICklav	*	*	*ICstr	*ICstr	*	*ICstr	*	*ICvox	*	*	*ICvox	*	*	*ICvox	*	*	*ICvox	*	*	*ICbras	*	*ICbras	*	*ICww	*	*ICww	*
*clefF4	*	*	*clefC3	*clefG2	*	*clefG2	*	*clefF4	*	*	*clefC4	*	*	*clefC3	*	*	*clefC1	*	*	*clefG2	*	*clefG2	*	*clefG2	*	*clefG2	*
*	*	*	*	*	*	*	*	*	*	*	*	*	*	*	*	*	*	*	*	*ITrd3c5	*	*ITrd3c5	*	*	*	*	*
*k[f#]	*	*	*k[f#]	*k[f#]	*	*k[f#]	*	*k[f#]	*	*	*k[f#]	*	*	*k[f#]	*	*	*k[f#]	*	*	*k[f#]	*	*k[f#]	*	*k[f#]	*	*k[f#]	*
*G:	*	*	*G:	*G:	*	*G:	*	*G:	*	*	*G:	*	*	*G:	*	*	*G:	*	*	*G:	*	*G:	*	*G:	*	*G:	*
*M4/4	*	*	*M4/4	*M4/4	*	*M4/4	*	*M4/4	*	*	*M4/4	*	*	*M4/4	*	*	*M4/4	*	*	*M4/4	*	*M4/4	*	*M4/4	*	*M4/4	*
*met(c)	*	*	*met(c)	*met(c)	*	*met(c)	*	*met(c)	*	*	*met(c)	*	*	*met(c)	*	*	*met(c)	*	*	*met(c)	*	*met(c)	*	*met(c)	*	*met(c)	*
=1	=1	=1	=1	=1	=1	=1	=1	=1	=1	=1	=1	=1	=1	=1	=1	=1	=1	=1	=1	=1	=1	=1	=1	=1	=1	=1	=1
*	*	*above	*	*	*	*	*	*	*	*	*	*	*	*	*	*	*	*	*	*	*	*	*	*	*	*	*
!LO:TX:t=P:problem=mixed beam	!	!	!	!	!	!	!	!	!	!	!	!	!	!	!	!	!	!	!	!	!	!	!	!	!	!	!
!LO:TX:a:i:t=Largo	!	!	!LO:TX:a:i:t=Largo	!LO:TX:a:i:t=Largo	!	!LO:TX:a:i:t=Largo	!	!LO:TX:a:i:t=Largo	!	!	!LO:TX:a:i:t=Largo	!	!	!LO:TX:a:i:t=Largo	!	!	!LO:TX:a:i:t=Largo	!	!	!LO:TX:a:i:t=Largo	!	!LO:TX:a:t=Largo	!	!LO:TX:a:i:t=Largo	!	!LO:TX:a:i:t=Largo	!
8G\L	.	X 3	4d\	8.g/L	.	8.b\L	.	8.G\	Ky-	.	8.d\	Ky-	.	8.g\	Ky-	.	8.b\	Ky-	.	4G/	.	4d/	.	8.gg\L	.	8.bb\L	.
8GG/J	.	.	.	.	.	.	.	.	.	.	.	.	.	.	.	.	.	.	.	.	.	.	.	.	.	.	.
.	.	.	.	16a/K	.	16cc\K	.	16G\	-ri-	.	16d\	-ri-	.	16a\	-ri-	.	16cc\	-ri-	.	.	.	.	.	16aa\K	.	16ccc\K	.
8r	.	.	8d\L	8b/	.	8dd\	.	8G\	-e	.	8d\	-e	.	8b\	-e	.	8dd\	-e	.	8G/	.	8d/	.	8bb\	.	8ddd\	.
8C/	.	X 3	8d\J	8cc/J	.	8ee\J	.	8c\	e-	.	8d\	e-	.	8cc\	e-	.	8ee\	e-	.	8r	.	8r	.	8ccc\J	.	8eee\J	.
.	.	.	.	.	.	16qqdd/	.	.	.	.	.	.	.	.	.	.	.	.	.	.	.	.	.	.	.	.	.
8.D\L	.	7 5	8d\L	8a/L	.	8cc\L	.	8d\	-lei-	.	8d\	-lei-	.	8a\	-lei-	.	8cc\	-lei-	.	8r	.	8r	.	8aa\L	.	(8ccc\L	.
.	.	.	8d\J	8f#/J	.	8a\J	.	8D/	-son	.	8d\	-son	.	8f#\	-son	.	8a\	-son	.	8d\L	.	8d/L	.	8ff#\J	.	8aa\J)	.
!LO:N:vis=8	!	!	!	!	!	!	!	!	!	!	!	!	!	!	!	!	!	!	!	!	!	!	!	!	!	!	!
16E\K	.	5 3	.	.	.	.	.	.	.	.	.	.	.	.	.	.	.	.	.	.	.	.	.	.	.	.	.
!	!	!	!	!	!	!LO:TX:t=P:problem=mixed beam	!	!	!	!	!	!	!	!	!	!	!	!	!	!	!	!	!	!	!	!	!
8F#\	.	.	8r	8r	.	(16f#/LL	.	4r	.	.	4r	.	.	4r	.	.	4r	.	.	8d\	.	8d/	.	8r	.	8r	.
.	.	.	.	.	.	16d/)	.	.	.	.	.	.	.	.	.	.	.	.	.	.	.	.	.	.	.	.	.
8D\J	.	.	8d\	(16a/LL	.	(16cc\	.	.	.	.	.	.	.	.	.	.	.	.	.	8d\J	.	8d/J	.	(16aa\LL	.	(16ccc\LL	.
.	.	.	.	16f#/JJ)	.	16a\JJ)	.	.	.	.	.	.	.	.	.	.	.	.	.	.	.	.	.	16ff#\JJ)	.	16aa\JJ)	.
=2	=2	=2	=2	=2	=2	=2	=2	=2	=2	=2	=2	=2	=2	=2	=2	=2	=2	=2	=2	=2	=2	=2	=2	=2	=2	=2	=2
!LO:TX:t=P:problem=mixed beam	!	!	!	!	!	!	!	!	!	!	!	!	!	!	!	!	!	!	!	!	!	!	!	!	!	!	!
8G\L	.	.	8d\L	(16b/LL	.	(16dd\LL	.	8r	.	.	8r	.	.	16b\	Ky-	.	16dd'\	Ky-	.	8G/	.	8d/	.	16bb\LL	.	(16ddd\LL	.
.	.	.	.	16g/	.	16b\)	.	.	.	.	.	.	.	16g\	-ri-	.	16b'\	-ri-	.	.	.	.	.	(16gg\	.	16bb\)	.
8C\	.	X 6	8e\	16e/	.	(16cc\	.	16r	.	.	16r	.	.	16e\	-e	.	16cc'\	-e	.	8r	.	8r	.	16ee\)	.	(16ccc\	.
.	.	.	.	16c/JJ)	.	16a\JJ)	.	16c\	e-	.	16c\	e-	.	16e\	e-	.	16a'\	e-	.	.	.	.	.	16cc\JJ	.	16aa\JJ)	.
!	!	!	!	!	!	!	!	!LO:TX:t=P:problem=mixed beam	!	!	!	!	!	!	!	!	!	!	!	!	!	!	!	!	!	!	!
8D\	.	6 4	8d\	8B/L	.	8g/L	.	8d\L	-lei-	.	8B\L	-lei-	.	4d\	-lei-	.	8g/L	-lei-	.	8d\L	.	8d/L	.	8b\L	.	8gg\L	.
8DD/J	.	3 3	8d\J	8A/J	.	8f#/J	.	8D/J	.	.	8A\J	.	.	.	.	.	8f#/J	.	.	8d\J	.	8d/J	.	8a\J	.	8ff#\J	.
!	!	!	!	!LO:TX:t=P:problem=mixed beam	!	!LO:TX:t=P:problem=mixed beam	!	!	!	!	!	!	!	!	!	!	!	!	!	!	!	!	!	!	!	!	!
4GG/	.	.	4d\	16B/LL	.	16g/LL	.	8G\	-son	.	8B\	-son	.	8d\	-son	.	8g/	-son	.	8G/	.	8d/	.	4b\	.	4gg\	.
.	.	.	.	(16ee'\	.	(16gg'\	.	.	.	.	.	.	.	.	.	.	.	.	.	.	.	.	.	.	.	.	.
.	.	.	.	16dd'\	.	16ff#'\	.	8r	.	.	4r	.	.	8r	.	.	4r	.	.	8r	.	8r	.	.	.	.	.
.	.	.	.	16cc'\JJ	.	16ee'\JJ)	.	.	.	.	.	.	.	.	.	.	.	.	.	.	.	.	.	.	.	.	.
4r	.	.	4r	16b'\LL	.	(16dd'\LL	.	4r	.	.	.	.	.	4r	.	.	.	.	.	4r	.	4r	.	4r	.	4r	.
.	.	.	.	16a'\	.	16cc'\	.	.	.	.	.	.	.	.	.	.	.	.	.	.	.	.	.	.	.	.	.
.	.	.	.	16g'\	.	16b'\	.	.	.	.	8r	.	.	.	.	.	8r	.	.	.	.	.	.	.	.	.	.
.	.	.	.	16f#'\JJ)	.	16a'\JJ)	.	.	.	.	.	.	.	.	.	.	.	.	.	.	.	.	.	.	.	.	.
=3	=3	=3	=3	=3	=3	=3	=3	=3	=3	=3	=3	=3	=3	=3	=3	=3	=3	=3	=3	=3	=3	=3	=3	=3	=3	=3	=3
!LO:TX:t=P:problem=mixed beam	!	!	!	!	!	!	!	!	!	!	!	!	!	!	!	!	!	!	!	!	!	!	!	!	!	!	!
8G\L	.	X 3	4d\	8.g/L	.	8.bL 8.d 8.G/	.	8.G\	Ky-	.	8.d\	Ky-	.	8.g\	Ky-	.	8.b\	Ky-	.	4G/	.	4d/	.	8.gg\L	.	8.bb\L	.
8GG/J	.	.	.	.	.	.	.	.	.	.	.	.	.	.	.	.	.	.	.	.	.	.	.	.	.	.	.
.	.	.	.	16a/Jk	.	16cc/Jk	.	16G\	-ri-	.	16d\	-ri-	.	16a\	-ri-	.	16cc\	-ri-	.	.	.	.	.	16aa\K	.	16ccc\K	.
8r	.	.	8d\L	8b\L	.	(8dd\L	.	8G\	-e	.	8d\	-e	.	8b\	-e	.	8dd\	-e	.	8G/	.	8d/	.	8bb\	.	8ddd\	.
8C/	.	X 3	8d\J	8cc\J	.	8ee\J)	.	8c\	e-	.	8d\	e-	.	8cc\	e-	.	8ee\	e-	.	8r	.	8r	.	8ccc\J	.	8eee\J	.
.	.	.	.	.	.	16qqdd/	.	.	.	.	.	.	.	.	.	.	.	.	.	.	.	.	.	.	.	.	.
8.D\L	.	7 5	8d\L	8a/L	.	8cc\L	.	8d\	-lei-	.	8d\	-lei-	.	8a\	-lei-	.	8cc\	-lei-	.	8r	.	8r	.	8aa\L	.	(8ccc\L	.
.	.	.	8d\J	8f#/J	.	8a\J	.	8D/	-son	.	8d\	-son	.	8f#\	-son	.	8a\	-son	.	8d\L	.	8d/L	.	8ff#\J	.	8aa\J)	.
!LO:N:vis=8	!	!	!	!	!	!	!	!	!	!	!	!	!	!	!	!	!	!	!	!	!	!	!	!	!	!	!
16E\K	.	5 3	.	.	.	.	.	.	.	.	.	.	.	.	.	.	.	.	.	.	.	.	.	.	.	.	.
!	!	!	!	!	!	!LO:TX:t=P:problem=mixed beam	!	!	!	!	!	!	!	!	!	!	!	!	!	!	!	!	!	!	!	!	!
8F#\	.	.	8r	8r	.	(16f#\LL	.	4r	.	.	4r	.	.	4r	.	.	4r	.	.	8d\	.	8d/	.	8r	.	8r	.
.	.	.	.	.	.	16d/)	.	.	.	.	.	.	.	.	.	.	.	.	.	.	.	.	.	.	.	.	.
8D\J	.	.	8d\	(16a/LL	.	(16cc\	.	.	.	.	.	.	.	.	.	.	.	.	.	8d\J	.	8d/J	.	(16aa\LL	.	(16ccc\LL	.
.	.	.	.	16f#/JJ)	.	16a\JJ)	.	.	.	.	.	.	.	.	.	.	.	.	.	.	.	.	.	16ff#\JJ)	.	16aa\JJ)	.
!	!	!	!	!	!	!	!	!	!	!	!	!	!	!LO:LB:g=original	!	!	!	!	!	!	!	!	!	!	!	!	!
=4	=4	=4	=4	=4	=4	=4	=4	=4	=4	=4	=4	=4	=4	=4	=4	=4	=4	=4	=4	=4	=4	=4	=4	=4	=4	=4	=4
!LO:TX:t=P:problem=mixed beam	!	!	!	!	!	!	!	!	!	!	!	!	!	!	!	!	!	!	!	!	!	!	!	!	!	!	!
8G\L	.	.	8d\L	(16b/LL	.	16dd\LL	.	8r	.	.	8r	.	.	16b\	Ky-	.	16dd\	Ky-	.	8G/	.	8d/	.	(16bb\LL	.	(16ddd\LL	.
.	.	.	.	16g/	.	16b\	.	.	.	.	.	.	.	16g\	-ri-	.	16b\	-ri-	.	.	.	.	.	16gg\)	.	16bb\)	.
8C\	.	X 6	8e\	16e/	.	16cc\	.	16ryy	.	.	16r	.	.	16e\	-e	.	16cc\	-e	.	8r	.	8r	.	(16ee\	.	(16ccc\	.
.	.	.	.	16c/JJ)	.	16a\JJ	.	16C/	e-	.	16c\	e-	.	16e\	e-	.	16a\	e-	.	.	.	.	.	16cc\JJ)	.	16aa\JJ)	.
8D\	.	6 4	8d\	8B/L	.	8g/L	.	4D/	-lei-	.	8B\L	-lei-	.	4d\	-lei-	.	8g\L	-lei-	.	8d\L	.	8d/L	.	8b\L	.	8gg\L	.
8DD/J	.	5_ 3_	8d\J	8A/J	.	8f#/J	.	.	.	.	8A\J	.	.	.	.	.	8f#\J	.	.	8d\J	.	8d/J	.	8a\J	.	8ff#\J	.
!LO:TX:t=P:problem=mixed beam	!	!	!	!	!	!	!	!	!	!	!	!	!	!	!	!	!	!	!	!	!	!	!	!	!	!	!
8GG/L	.	.	4d\	4A/	.	(4f#/	.	8GG/	-son	.	8B\	-son	.	8d\	-son	.	4g\	-son	.	4d\	.	4d/	.	4a/	.	4ff#\	.
8G\	.	X 3	.	.	.	.	.	8r	.	.	8r	.	.	4r	.	.	.	.	.	.	.	.	.	.	.	.	.
!	!	!	!	!LO:TX:t=P:problem=mixed beam	!	!	!	!	!	!	!	!	!	!	!	!	!	!	!	!	!	!	!	!	!	!	!
8GG/J	.	.	8d\	8B/L	.	8g/)	.	4r	.	.	4r	.	.	.	.	.	4r	.	.	8G/	.	8d/	.	8b/	.	8gg\	.
8r	.	.	8r	8b\J	.	(16dd\LL	.	.	.	.	.	.	.	8r	.	.	.	.	.	8r	.	8r	.	8r	.	8r	.
.	.	.	.	.	.	16dd#X\JJ)	.	.	.	.	.	.	.	.	.	.	.	.	.	.	.	.	.	.	.	.	.
!	!	!	!	!LO:LB:g=original	!	!LO:LB:g=original	!	!LO:LB:g=original	!	!	!LO:LB:g=original	!	!	!	!	!	!LO:LB:g=original	!	!	!	!	!	!	!	!	!	!
=5	=5	=5	=5	=5	=5	=5	=5	=5	=5	=5	=5	=5	=5	=5	=5	=5	=5	=5	=5	=5	=5	=5	=5	=5	=5	=5	=5
*tremolo	*	*	*	*	*	*	*	*	*	*	*	*	*	*	*	*	*	*	*	*	*	*	*	*	*	*	*
8C/L	.	.	8.cc\L	(16c/LL	.	(8.ee\L	.	8.C/	Ky-	.	8.c\	Ky-	.	8.g\	Ky-	.	8.ee\	Ky-	.	2r	.	2r	.	4cc\	.	4ee\	.
.	.	.	.	16g/	.	.	.	.	.	.	.	.	.	.	.	.	.	.	.	.	.	.	.	.	.	.	.
8C/	.	.	.	16e/	.	.	.	.	.	.	.	.	.	.	.	.	.	.	.	.	.	.	.	.	.	.	.
.	.	.	16g\K	16g/JJ)	.	16cc\Jk)	.	16C/	-ri-	.	16c\	-ri-	.	16g\	-ri-	.	16ee\	-ri-	.	.	.	.	.	.	.	.	.
8C/	.	.	8cc\	(16c/LL	.	(16.gg\LL	.	4C/	-e	.	4c\	-e	.	4g\	-e	.	4ee\	-e	.	.	.	.	.	8ee\L	.	8gg\L	.
.	.	.	.	16g/	.	.	.	.	.	.	.	.	.	.	.	.	.	.	.	.	.	.	.	.	.	.	.
.	.	.	.	.	.	32ee\K)	.	.	.	.	.	.	.	.	.	.	.	.	.	.	.	.	.	.	.	.	.
8C/J	.	.	8cc\J	16e/	.	(16.ccc\	.	.	.	.	.	.	.	.	.	.	.	.	.	.	.	.	.	8ee\J	.	8ccc\J	.
.	.	.	.	16g/JJ)	.	.	.	.	.	.	.	.	.	.	.	.	.	.	.	.	.	.	.	.	.	.	.
.	.	.	.	.	.	32ee\JJk)	.	.	.	.	.	.	.	.	.	.	.	.	.	.	.	.	.	.	.	.	.
*2\right	*	*	*	*	*	*	*	*	*ij	*	*	*ij	*	*	*ij	*	*	*ij	*	*	*	*	*	*	*	*	*
8G\L	.	.	8.b\L	(16B/LL	.	(8.ddn\L	.	8.G\	e-	.	8.B\	e-	.	8.g\	e-	.	8.dd\	e-	.	4G/	.	4g/	.	4b\	.	4dd\	.
.	.	.	.	16g/	.	.	.	.	.	.	.	.	.	.	.	.	.	.	.	.	.	.	.	.	.	.	.
8G\	.	.	.	16d/	.	.	.	.	.	.	.	.	.	.	.	.	.	.	.	.	.	.	.	.	.	.	.
!	!	!	!LO:N:vis=8	!	!	!	!	!	!	!	!	!	!	!	!	!	!	!	!	!	!	!	!	!	!	!	!
.	.	.	16g\K	16g/JJ)	.	16b\Jk)	.	16G\	-lei-	.	16B\	-lei-	.	16g\	-lei-	.	16dd\	-lei-	.	.	.	.	.	.	.	.	.
8G\	.	.	8b\	(16B/LL	.	(16.gg\LL	.	4G\	-son	.	4B\	-son	.	4g\	-son	.	4dd\	-son	.	8G/L	.	8g/L	.	8dd\L	.	8gg\L	.
*	*	*	*	*	*	*	*	*	*Xij	*	*	*Xij	*	*	*Xij	*	*	*Xij	*	*	*	*	*	*	*	*	*
.	.	.	.	16g/	.	.	.	.	.	.	.	.	.	.	.	.	.	.	.	.	.	.	.	.	.	.	.
.	.	.	.	.	.	32dd\K)	.	.	.	.	.	.	.	.	.	.	.	.	.	.	.	.	.	.	.	.	.
8G\J	.	.	8b\J	16d/	.	(16.bb\	.	.	.	.	.	.	.	.	.	.	.	.	.	8G/J	.	8g/J	.	8dd\J	.	8bb\J	.
.	.	.	.	16g/JJ)	.	.	.	.	.	.	.	.	.	.	.	.	.	.	.	.	.	.	.	.	.	.	.
.	.	.	.	.	.	32dd\JJk)	.	.	.	.	.	.	.	.	.	.	.	.	.	.	.	.	.	.	.	.	.
!LO:LB:g=original	!	!	!LO:LB:g=original	!	!	!	!	!	!	!	!	!	!	!	!	!	!	!	!	!	!	!	!	!LO:LB:g=original	!	!LO:LB:g=original	!
=6	=6	=6	=6	=6	=6	=6	=6	=6	=6	=6	=6	=6	=6	=6	=6	=6	=6	=6	=6	=6	=6	=6	=6	=6	=6	=6	=6
8D\L	.	7 5	8.a\L	(16A/LL	.	(8.cc\L	.	8.D\	Ky-	.	8.A\	Ky-	.	8.f#\	Ky-	.	8.cc\	Ky-	.	4d\	.	4a\	.	4a/	.	4cc\	.
.	.	.	.	16f#/	.	.	.	.	.	.	.	.	.	.	.	.	.	.	.	.	.	.	.	.	.	.	.
8D\	.	.	.	16c/	.	.	.	.	.	.	.	.	.	.	.	.	.	.	.	.	.	.	.	.	.	.	.
.	.	.	16f#\K	16f#/JJ)	.	16a\Jk)	.	16D\	-ri-	.	16A\	-ri-	.	16f#\	-ri-	.	16cc\	-ri-	.	.	.	.	.	.	.	.	.
8D\	.	.	8a\	(16A/LL	.	(16.ff#\LL	.	8D\	-e	.	8A\	-e	.	8f#\	-e	.	8cc\	-e	.	8d\L	.	8a\L	.	8cc\L	.	8ff#\L	.
.	.	.	.	16f#/	.	.	.	.	.	.	.	.	.	.	.	.	.	.	.	.	.	.	.	.	.	.	.
.	.	.	.	.	.	32cc\K)	.	.	.	.	.	.	.	.	.	.	.	.	.	.	.	.	.	.	.	.	.
8D\J	.	.	8a\J	16c/	.	(16.aa\	.	8D\	e-	.	8A\	e-	.	8f#\	e-	.	8cc\	e-	.	8d\J	.	8a\J	.	8cc\J	.	8aa\J	.
.	.	.	.	16f#/JJ)	.	.	.	.	.	.	.	.	.	.	.	.	.	.	.	.	.	.	.	.	.	.	.
.	.	.	.	.	.	32cc\JJk)	.	.	.	.	.	.	.	.	.	.	.	.	.	.	.	.	.	.	.	.	.
*Xtremolo	*	*	*	*	*	*Xtuplet	*	*	*	*	*	*	*	*	*	*	*2\right	*	*	*	*	*	*	*	*	*	*
8G\L	.	.	(16g'\LL	16bLL 16d/	.	(16b\LL	.	(4G\	-lei-	.	4B\	-lei-	.	4g\	-lei-	.	2dd\	-lei-	.	4g\	.	4b\	.	(16gg\LL	.	4bb\	.
.	.	.	16g'\	16b 16d/	.	16dd\)	.	.	.	.	.	.	.	.	.	.	.	.	.	.	.	.	.	16dd\)	.	.	.
8D\	.	.	16g'\	16b 16d/	.	(16dd'\	.	.	.	.	.	.	.	.	.	.	.	.	.	.	.	.	.	(16gg\	.	.	.
.	.	.	16g'\JJ)	16bJJ 16d/	.	16dd'\JJ)	.	.	.	.	.	.	.	.	.	.	.	.	.	.	.	.	.	16dd\JJ)	.	.	.
!	!	!	!	!	!	!	!	!	!	!	!LO:TX:a:t=c	!	!	!	!	!	!	!	!	!	!	!	!	!	!	!	!
8A\	.	.	(16a'\LL	16ccLL 16d/	.	(24dd\LL	.	4F#\)	.	.	4c\	.	.	4f#\	.	.	.	.	.	4d\	.	4a\	.	(16ff#\LL	.	4ccc\	.
.	.	.	.	.	.	24ccc\	.	.	.	.	.	.	.	.	.	.	.	.	.	.	.	.	.	.	.	.	.
.	.	.	16a'\	16cc 16d/	.	.	.	.	.	.	.	.	.	.	.	.	.	.	.	.	.	.	.	16dd\)	.	.	.
.	.	.	.	.	.	24bb\JJ)	.	.	.	.	.	.	.	.	.	.	.	.	.	.	.	.	.	.	.	.	.
8D\J	.	.	16a'\	16cc 16d/	.	24aa\LL	.	.	.	.	.	.	.	.	.	.	.	.	.	.	.	.	.	(16ff#\	.	.	.
.	.	.	.	.	.	24gg\	.	.	.	.	.	.	.	.	.	.	.	.	.	.	.	.	.	.	.	.	.
.	.	.	16a'\JJ)	16ccJJ 16d/	.	.	.	.	.	.	.	.	.	.	.	.	.	.	.	.	.	.	.	16dd\JJ)	.	.	.
.	.	.	.	.	.	24ff#\JJ	.	.	.	.	.	.	.	.	.	.	.	.	.	.	.	.	.	.	.	.	.
!	!	!	!	!	!	!	!	!	!	!	!	!	!	!	!	!	!	!	!	!LO:LB:g=original	!	!LO:LB:g=original	!	!	!	!	!
=7	=7	=7	=7	=7	=7	=7	=7	=7	=7	=7	=7	=7	=7	=7	=7	=7	=7	=7	=7	=7	=7	=7	=7	=7	=7	=7	=7
*	*	*	*	*	*	*	*	*	*	*	*	*	*	*	*	*	*	*	*	*	*	*	*	*	*	*	*
*	*	*	*tremolo	*	*	*	*	*	*	*	*	*	*	*	*	*	*	*	*	*	*	*	*	*	*	*	*
*	*	*	*	*tremolo	*	*	*	*	*	*	*	*	*	*	*	*	*	*	*	*	*	*	*	*	*	*	*
!	!	!	!LO:TX:t=P:problem=poczwórne staccato	!LO:TX:t=P:problem=poczwórne staccato	!	!	!	!	!	!	!	!	!	!	!	!	!	!	!	!	!	!	!	!	!	!	!
8G\L	.	.	16g'\LL	16b 16d'/LL	.	(16gg\LL	.	4G\	.	.	4B\	.	.	4g\	.	.	2dd\	-son	.	4g\	.	4b\	.	(16gg\LL	.	4bb\	.
.	.	.	16g'\	16b 16d'/	.	16dd\)	.	.	.	.	.	.	.	.	.	.	.	.	.	.	.	.	.	16dd\)	.	.	.
8D\	.	.	16g'\	16b 16d'/	.	(16dd'\	.	.	.	.	.	.	.	.	.	.	.	.	.	.	.	.	.	(16gg\	.	.	.
.	.	.	16g'\JJ	16b 16d'/JJ	.	16dd'\JJ)	.	.	.	.	.	.	.	.	.	.	.	.	.	.	.	.	.	16dd\JJ)	.	.	.
!	!	!	!LO:TX:t=P:problem=poczwórne staccato	!LO:TX:t=P:problem=poczwórne staccato	!	!	!	!	!	!	!	!	!	!	!	!	!	!	!	!	!	!	!	!	!	!	!
!	!	!	!	!	!	!	!LO:TUP:a:problem=klamra łukowa	!	!	!	!	!	!	!	!	!	!	!	!	!	!	!	!	!	!	!	!
8A\	.	.	16a'\LL	16cc 16d'/LL	.	24dd\LL	.	4F#\	.	.	4c\	.	.	4f#\	.	.	.	.	.	4d\	.	4a\	.	(16ff#\LL	.	4ccc\	.
.	.	.	.	.	.	24ccc\	.	.	.	.	.	.	.	.	.	.	.	.	.	.	.	.	.	.	.	.	.
.	.	.	16a'\	16cc 16d'/	.	.	.	.	.	.	.	.	.	.	.	.	.	.	.	.	.	.	.	16dd\)	.	.	.
.	.	.	.	.	.	24bb\JJ	.	.	.	.	.	.	.	.	.	.	.	.	.	.	.	.	.	.	.	.	.
!	!	!	!	!	!	!LO:TX:t=P:problem=klamra łukowa	!	!	!	!	!	!	!	!	!	!	!	!	!	!	!	!	!	!	!	!	!
!	!	!	!	!	!	!LO:TUP:a:problem=klamra łukowa	!	!	!	!	!	!	!	!	!	!	!	!	!	!	!	!	!	!	!	!	!
*	*	*	*	*	*	*tuplet	*	*	*	*	*	*	*	*	*	*	*	*	*	*	*	*	*	*	*	*	*
8D\J	.	.	16a'\	16cc 16d'/	.	24aa\LL	.	.	.	.	.	.	.	.	.	.	.	.	.	.	.	.	.	(16ff#\	.	.	.
.	.	.	.	.	.	24gg\	.	.	.	.	.	.	.	.	.	.	.	.	.	.	.	.	.	.	.	.	.
.	.	.	16a'\JJ	16cc 16d'/JJ	.	.	.	.	.	.	.	.	.	.	.	.	.	.	.	.	.	.	.	16dd\JJ)	.	.	.
.	.	.	.	.	.	24ff#\JJ	.	.	.	.	.	.	.	.	.	.	.	.	.	.	.	.	.	.	.	.	.
*	*	*	*Xtremolo	*Xtremolo	*	*	*	*	*	*	*	*	*	*	*	*	*	*	*	*	*	*	*	*	*	*	*
!	!	!	!LO:TX:b:i:t=dolce	!LO:TX:b:i:t=dolce	!	!LO:TX:b:i:t=dolce	!	!	!	!	!	!	!	!	!	!	!	!	!	!	!	!	!	!	!	!	!
4G\	.	.	8g\L	8b\L	.	8gg\L	.	8G\	-son	.	8B\	-son	.	8g\	-son	.	4dd\	.	.	8g\	.	8b\	.	8gg\	.	8bb\	.
.	.	.	16g\L	(16ee\L	.	(16gg\L	.	8r	.	.	8r	.	.	8r	.	.	.	.	.	8r	.	8r	.	8r	.	8r	.
.	.	.	16f#\JJ	16dd\JJ	.	16ff#\JJ)	.	.	.	.	.	.	.	.	.	.	.	.	.	.	.	.	.	.	.	.	.
4r	.	.	(16e\LL	16cc\LL	.	(16ee\LL	.	4r	.	.	4r	.	.	4r	.	.	8r	.	.	4r	.	4r	.	4r	.	4r	.
.	.	.	16d\	16b\	.	16dd\	.	.	.	.	.	.	.	.	.	.	.	.	.	.	.	.	.	.	.	.	.
!	!	!	!	!	!	!	!	!	!	!	!	!	!	!	!	!	!LO:N:vis=4	!	!	!	!	!	!	!	!	!	!
.	.	.	16c\	16a\	.	16cc\	.	.	.	.	.	.	.	.	.	.	8r	.	.	.	.	.	.	.	.	.	.
.	.	.	16B\JJ)	16g\JJ)	.	16b\JJ)	.	.	.	.	.	.	.	.	.	.	.	.	.	.	.	.	.	.	.	.	.
=8	=8	=8	=8	=8	=8	=8	=8	=8	=8	=8	=8	=8	=8	=8	=8	=8	=8	=8	=8	=8	=8	=8	=8	=8	=8	=8	=8
!	!	!	!	!	!	!	!	!	!	!	!	!	!	!	!	!	!	!	!	!LO:TX:b:i:t=dolce	!	!	!	!LO:TX:b:i:t=dolce	!	!	!
8BB/L	.	.	8.dT\L	(8.b/L	.	8.dd\L	.	8BB/	Ky-	.	8.dT\	Ky-	.	8.b\	Ky-	.	8.ddT\	Ky-	.	4d\	.	4d\	.	8.bb\L	.	8.ddd\L	.
8C/	.	.	.	.	.	.	.	8C/	-ri-	.	.	.	.	.	.	.	.	.	.	.	.	.	.	.	.	.	.
.	.	.	32c\LL	32a/LL	.	(32cc\LL	.	.	.	.	16d\	-ri-	.	32a\LLL	-ri-	.	32cc\LLL	-ri-	.	.	.	.	.	(32aa\LL	.	(32ccc\LL	.
.	.	.	32B\JJJ	32g/JJJ)	.	32b\JJJ)	.	.	.	.	.	.	.	32g\JJJ	.	.	32b\JJJ	.	.	.	.	.	.	32gg\JJJ)	.	32bb\JJJ)	.
8D/J	.	.	16A/LL	16f#/LL	.	(<16a/LL	.	8D\	-e	.	8d\	-e	.	16f#\	-e	.	16a\	-e	.	8d\	.	8d\	.	8ff#\	.	8aa\	.
.	.	.	16G#X/	16g/	.	16a#X/	.	.	.	.	.	.	.	16r	.	.	16r	.	.	.	.	.	.	.	.	.	.
8r	.	.	16B/	16g#X/	.	16b/	.	8r	.	.	16r	.	.	16r	.	.	16r	.	.	8r	.	8r	.	8r	.	8r	.
!	!	!	!	!	!	!	!	!	!	!	!	!	!	!LO:LB:g=original	!	!	!	!	!	!	!	!	!	!	!	!	!
.	.	.	16c/JJ	16a/JJ	.	16cc/JJ)	.	.	.	.	16d\	e-	.	16a\	e-	.	16cc\	e-	.	.	.	.	.	.	.	.	.
!	!	!	!	!	!	!	!	!	!	!	!	!	!	!LO:N:vis=8	!	!	!	!	!	!	!	!	!	!	!	!	!
8BB/L	.	.	8.dT\L	8.b/L	.	8.ddT\L	.	8BB/	e-	.	4d\	-lei-	.	8.b\L	-lei-	.	8.ddT\L	-lei-	.	4d\	.	4d/	.	8.bb\L	.	8.ddd\L	.
8C/J	.	.	.	.	.	.	.	8C/	-lei-	.	.	.	.	.	.	.	.	.	.	.	.	.	.	.	.	.	.
!	!	!	!	!LO:N:vis=16	!	!	!	!	!	!	!	!	!	!	!	!	!	!	!	!	!	!	!	!	!	!	!
.	.	.	32c\LL	(32a/LL	.	(32cc\LL	.	.	.	.	.	.	.	(32a\LL	.	.	(32cc\LL	.	.	.	.	.	.	(32aa\LL	.	(32ccc\LL	.
!	!	!	!	!LO:N:vis=16	!	!	!	!	!	!	!	!	!	!	!	!	!	!	!	!	!	!	!	!	!	!	!
.	.	.	32B\JJJ	32gn/JJJ)	.	32b\JJJ)	.	.	.	.	.	.	.	32g\JJJ)	.	.	32b\JJJ)	.	.	.	.	.	.	32gg\JJJ)	.	32bb\JJJ)	.
8D\	.	.	8d\	8f#/	.	8an/L	.	8D\	-son	.	8d\	-son	.	8f#\	-son	.	8a\	-son	.	8d\	.	8d/	.	8ff#\	.	8aa\	.
8r	.	.	8r	8r	.	8a/J	.	8r	.	.	8r	.	.	8r	.	.	8r	.	.	8r	.	8r	.	8r	.	8r	.
!	!	!	!	!LO:LB:g=original	!	!LO:LB:g=original	!	!	!	!	!	!	!	!	!	!	!	!	!	!	!	!	!	!	!	!	!
=9	=9	=9	=9	=9	=9	=9	=9	=9	=9	=9	=9	=9	=9	=9	=9	=9	=9	=9	=9	=9	=9	=9	=9	=9	=9	=9	=9
!	!LO:DY:b:t=piano	!	!	!	!LO:DY:b:t=piano	!	!LO:DY:b:t=piano	!LO:TX:a:t=4	!	!	!LO:TX:a:t=2	!	!	!	!	!	!	!	!	!LO:TX:a:t=4	!	!LO:TX:a:t=4	!	!LO:TX:a:t=4	!	!LO:TX:a:t=4	!
8r	p	.	8r	(8.f#/L	p	(8.dd\L	p	00r	.	.	0r	.	.	(8.f#\L	Chri-	.	(8.dd\L	Chri-	.	00r	.	00r	.	00r	.	00r	.
!LO:TX:t=P:problem=mixed beam	!	!	!	!	!	!	!	!	!	!	!	!	!	!	!	!	!	!	!	!	!	!	!	!	!	!	!
8D\L	.	.	8a\L	.	.	.	.	.	.	.	.	.	.	.	.	.	.	.	.	.	.	.	.	.	.	.	.
.	.	.	.	16g/Jk)	.	16ee\Jk)	.	.	.	.	.	.	.	16g\Jk)	.	.	16ee\Jk)	.	.	.	.	.	.	.	.	.	.
.	.	.	.	.	.	16qqdd/	.	.	.	.	.	.	.	.	.	.	.	.	.	.	.	.	.	.	.	.	.
8AA/J	.	.	8a\J	8e/	.	8cc#X\L	.	.	.	.	.	.	.	8e\	-ste	.	8cc#X\	-ste	.	.	.	.	.	.	.	.	.
8r	.	.	8r	8r	.	8a\J	.	.	.	.	.	.	.	8r	.	.	8r	.	.	.	.	.	.	.	.	.	.
*	*	*	*	*	*	*	*	*	*	*	*	*	*	*	*	*	*	*ij	*	*	*	*	*	*	*	*	*
8r	.	.	8r	(8.g/L	.	8.ee\L	.	.	.	.	.	.	.	8.g\L	Chri-	.	(8.ee\L	Chri-	.	.	.	.	.	.	.	.	.
!LO:TX:t=P:problem=mixed beam	!	!	!	!	!	!	!	!	!	!	!	!	!	!	!	!	!	!	!	!	!	!	!	!	!	!	!
8AA/L	.	.	8a\L	.	.	.	.	.	.	.	.	.	.	.	.	.	.	.	.	.	.	.	.	.	.	.	.
.	.	.	.	16a/Jk)	.	16ff#\Jk	.	.	.	.	.	.	.	16a\Jk	.	.	16ff#\Jk)	.	.	.	.	.	.	.	.	.	.
.	.	.	.	.	.	16qqee/	.	.	.	.	.	.	.	.	.	.	.	.	.	.	.	.	.	.	.	.	.
8D\J	.	.	8a\J	8f#/L	.	8dd\L	.	.	.	.	.	.	.	8f#\	-ste	.	8dd\	-ste	.	.	.	.	.	.	.	.	.
*	*	*	*	*	*	*	*	*	*	*	*	*	*	*	*	*	*	*Xij	*	*	*	*	*	*	*	*	*
8r	.	.	8r	8a'/J	.	8ff#\J	.	.	.	.	.	.	.	8a\	Chri-	.	8ff#\	Chri-	.	.	.	.	.	.	.	.	.
!	!	!	!	!	!	!	!	!	!	!	!	!	!	!	!	!	!LO:LB:g=original	!	!	!	!	!	!	!	!	!	!
=10	=10	=10	=10	=10	=10	=10	=10	=10	=10	=10	=10	=10	=10	=10	=10	=10	=10	=10	=10	=10	=10	=10	=10	=10	=10	=10	=10
8r	.	.	4a 4d\	4a/	.	4ff#\	.	.	.	.	.	.	.	4a\	-ste	.	4ff#\	-ste	.	.	.	.	.	.	.	.	.
8D\L	.	.	.	.	.	.	.	.	.	.	.	.	.	.	.	.	.	.	.	.	.	.	.	.	.	.	.
8F#\	.	.	8a\L	(16g/LL	.	(16ee\LL	.	.	.	.	.	.	.	(16g\LL	e-	.	(16ee\LL	e-	.	.	.	.	.	.	.	.	.
.	.	.	.	16f#/)	.	16dd\)	.	.	.	.	.	.	.	16f#\)	.	.	16dd\	.	.	.	.	.	.	.	.	.	.
8D\J	.	.	8a\J	(16b/	.	(16gg\	.	.	.	.	.	.	.	16b\	.	.	16gg\)	.	.	.	.	.	.	.	.	.	.
.	.	.	.	16a/JJ)	.	16ff#\JJ)	.	.	.	.	.	.	.	16a\JJ	.	.	16ff#\JJ	.	.	.	.	.	.	.	.	.	.
!LO:TX:t=P:problem=mixed beam	!	!	!	!	!	!	!	!	!	!	!	!	!	!	!	!	!	!	!	!	!	!	!	!	!	!	!
8A\L	.	.	4a\	(8.a/L	.	8.ff#\L	.	.	.	.	.	.	.	8.a\L	-lei-	.	8.ff#\L	-lei-	.	.	.	.	.	.	.	.	.
8AA/	.	.	.	.	.	.	.	.	.	.	.	.	.	.	.	.	.	.	.	.	.	.	.	.	.	.	.
.	.	.	.	16f#/Jk)	.	16dd#X'\Jk	.	.	.	.	.	.	.	16f#\Jk	.	.	16dd#X\Jk	.	.	.	.	.	.	.	.	.	.
8C#X/	.	.	8a\	8g'/L	.	8ee'\L	.	.	.	.	.	.	.	8g\	-son	.	8ee\	-son	.	.	.	.	.	.	.	.	.
8E/J	.	.	8r	8g'/J	.	8ee'\J	.	.	.	.	.	.	.	8g\	Chri-	.	8ee\	Chri-	.	.	.	.	.	.	.	.	.
!LO:LB:g=original	!	!	!	!	!	!	!	!	!	!	!	!	!	!	!	!	!	!	!	!	!	!	!	!	!	!	!
=11	=11	=11	=11	=11	=11	=11	=11	=11	=11	=11	=11	=11	=11	=11	=11	=11	=11	=11	=11	=11	=11	=11	=11	=11	=11	=11	=11
8r	.	.	4a\	4g/	.	4ee\	.	.	.	.	4.A/	Ky-	.	4g\	-ste	.	4ee\	-ste	.	.	.	.	.	.	.	.	.
8AA/L	.	7 5	.	.	.	.	.	.	.	.	.	.	.	.	.	.	.	.	.	.	.	.	.	.	.	.	.
8C#X/	.	.	8a\L	(16f#/LL	.	(16ddn\LL	.	.	.	.	.	.	.	(16f#\LL	e-	.	(16ddn\LL	e-	.	.	.	.	.	.	.	.	.
.	.	.	.	16e/)	.	16cc\)	.	.	.	.	.	.	.	16e\	.	.	16cc\)	.	.	.	.	.	.	.	.	.	.
8AA/J	.	.	8a\J	(16a/	.	(16ff#\	.	.	.	.	8A/	-ri-	.	16a\)	.	.	16ff#\	.	.	.	.	.	.	.	.	.	.
.	.	.	.	16g/JJ)	.	16ee\JJ)	.	.	.	.	.	.	.	16g\JJ	.	.	16ee\JJ	.	.	.	.	.	.	.	.	.	.
8D\L	.	7 5	4a\	8.g/L	.	8.ee\L	.	.	.	.	4A/	-e	.	8.g\L	-lei-	.	8.ee\L	-lei-	.	.	.	.	.	.	.	.	.
8d\	.	.	.	.	.	.	.	.	.	.	.	.	.	.	.	.	.	.	.	.	.	.	.	.	.	.	.
.	.	.	.	16e/Jk	.	16cc#X\Jk	.	.	.	.	.	.	.	16e\Jk	.	.	16cc#X\Jk	.	.	.	.	.	.	.	.	.	.
8D\	.	.	8a\	8f#'/L	.	8dd\L	.	.	.	.	4A/	e-	.	8f#\	-son	.	8dd\	-son	.	.	.	.	.	.	.	.	.
8F#\J	.	.	8r	8a'/J	.	8ff#'\J	.	.	.	.	.	.	.	8a\	Chri-	.	(8ff#\	Chri-	.	.	.	.	.	.	.	.	.
!	!	!	!LO:LB:g=original	!	!	!	!	!	!	!	!LO:LB:g=original	!	!	!	!	!	!	!	!	!	!	!	!	!	!	!	!
=12	=12	=12	=12	=12	=12	=12	=12	=12	=12	=12	=12	=12	=12	=12	=12	=12	=12	=12	=12	=12	=12	=12	=12	=12	=12	=12	=12
*	*	*	*	*	*	*	*	*	*	*	*2\right	*	*	*	*	*	*	*	*	*	*	*	*	*	*	*	*
8G\L	.	.	2r	8b/L	.	8gg'\L	.	.	.	.	2A\	-lei-	.	8b\L	-ste	.	(8gg\L)	.	.	.	.	.	.	.	.	.	.
8F#\	.	.	.	8a/	.	8ff#'\	.	.	.	.	.	.	.	8a\J	.	.	8ff#\J)	-ste	.	.	.	.	.	.	.	.	.
8C\	.	.	.	8g/	.	8ee'\	.	.	.	.	.	.	.	8g\	e-	.	8ee\	e-	.	.	.	.	.	.	.	.	.
8D\J	.	.	.	8f#/J	.	8dd'\J	.	.	.	.	.	.	.	8f#\	-le-	.	8dd\	-lei-	.	.	.	.	.	.	.	.	.
!LO:TX:t=P:problem=mixed beam	!	!	!	!	!	!	!	!	!	!	!	!	!	!	!	!	!	!	!	!	!	!	!	!	!	!	!
8AA/L	.	.	4a\	4f#/	.	4dd\	.	.	.	.	2A\	-son	.	4f#t\	-i-	.	4dd\	.	.	.	.	.	.	.	.	.	.
8A\	.	.	.	.	.	.	.	.	.	.	.	.	.	.	.	.	.	.	.	.	.	.	.	.	.	.	.
.	.	.	.	(16qqe\LL	.	16qqcc/LL	.	.	.	.	.	.	.	16qqe/LL	.	.	8qqcc/L	.	.	.	.	.	.	.	.	.	.
.	.	.	.	16qqf#\JJ)	.	16qqdd/JJ	.	.	.	.	.	.	.	16qqf#/JJ	.	.	8qqee/J	.	.	.	.	.	.	.	.	.	.
8AA/J	.	.	8a\	8e/	.	8cc\	.	.	.	.	.	.	.	8e\	-son	.	8cc\	-son	.	.	.	.	.	.	.	.	.
8r	.	.	8r	8r	.	8r	.	.	.	.	.	.	.	8r	.	.	8r	.	.	.	.	.	.	.	.	.	.
!	!	!	!	!	!	!	!	!	!	!	!	!	!	!LO:LB:g=original	!	!	!	!	!	!	!	!	!	!	!	!	!
=13	=13	=13	=13	=13	=13	=13	=13	=13	=13	=13	=13	=13	=13	=13	=13	=13	=13	=13	=13	=13	=13	=13	=13	=13	=13	=13	=13
*	*	*	*	*	*	*	*	*	*	*	*	*	*	*	*	*	*	*	*	*	*	*	*	*2\right	*	*2\right	*
!	!	!	!	!	!	!	!	!	!	!	!	!	!	!	!	!	!	!	!	!	!	!	!	!	!LO:DY:b:t=for	!	!LO:DY:b:t=forte
!	!	!	!	!	!LO:DY:b:t=forte	!	!LO:DY:b:t=forte	!	!	!	!	!	!	!	!	!	!	!	!LO:DY:b:t=for	!	!	!	!	!	!	!	!
8r	.	.	16A\LL|	16A/LL	f	16a/LL	f	4.A\	Ky-	.	4.A\	Chri-	.	4.e\	Ky-	.	4.cc\	Ky-	f	1d	.	1d	.	2cc#X\	f	2ee\	f
.	.	.	(16e\	16A/	.	16a/	.	.	.	.	.	.	.	.	.	.	.	.	.	.	.	.	.	.	.	.	.
!	!LO:DY:b:t=forte	!	!	!	!	!	!	!	!	!	!	!	!	!	!	!	!	!	!	!	!	!	!	!	!	!	!
8AA/L	f	5 3	16c\	(16c#X/	.	16cc#X/	.	.	.	.	.	.	.	.	.	.	.	.	.	.	.	.	.	.	.	.	.
.	.	.	16e\JJ)	16e/JJ)	.	16ee/JJ	.	.	.	.	.	.	.	.	.	.	.	.	.	.	.	.	.	.	.	.	.
8C#X/	.	.	16A\LL|	(16d#X/LL	.	(16dd#X\LL	.	.	.	.	.	.	.	.	.	.	.	.	.	.	.	.	.	.	.	.	.
.	.	.	(16e\	16e/)	.	16ee\	.	.	.	.	.	.	.	.	.	.	.	.	.	.	.	.	.	.	.	.	.
8AA/J	.	.	16c\	16c#/	.	16cc#\	.	8A\	-ri-	.	8A\	-ste	.	8e\	-ri-	.	8cc\	-ri-	.	.	.	.	.	.	.	.	.
.	.	.	16e\JJ)	16A/JJ	.	16a\JJ)	.	.	.	.	.	.	.	.	.	.	.	.	.	.	.	.	.	.	.	.	.
!LO:TX:t=P:problem=mixed beam	!	!	!	!	!	!	!	!	!	!	!	!	!	!	!	!	!	!	!	!	!	!	!	!	!	!	!
8DD/L	.	.	16A\LL|	16G#X/LL	.	(16g#X\LL	.	4F#\	-e	.	4.A\	e-	.	4f#\	-e	.	4dd\	-e	.	.	.	.	.	2dd\	.	2ff#\	.
.	.	.	(16f#\	16A/	.	16a\	.	.	.	.	.	.	.	.	.	.	.	.	.	.	.	.	.	.	.	.	.
8D\	.	.	16d\	16dn/	.	16ddn\	.	.	.	.	.	.	.	.	.	.	.	.	.	.	.	.	.	.	.	.	.
.	.	.	16f#\JJ)	16f#/JJ	.	16ff#\JJ)	.	.	.	.	.	.	.	.	.	.	.	.	.	.	.	.	.	.	.	.	.
8F#\	.	.	16A\LL|	(16a'/LL	.	(16aa'\LL	.	4F#\	e-	.	.	.	.	4f#\	e-	.	4dd\	e-	.	.	.	.	.	.	.	.	.
.	.	.	(16f#\	16a'/	.	16aa'\	.	.	.	.	.	.	.	.	.	.	.	.	.	.	.	.	.	.	.	.	.
8D\J	.	.	16d\	16a'/	.	16aa'\	.	.	.	.	8A\	-lei-	.	.	.	.	.	.	.	.	.	.	.	.	.	.	.
.	.	.	16f#\JJ)	16a'/JJ)	.	16aa'\JJ)	.	.	.	.	.	.	.	.	.	.	.	.	.	.	.	.	.	.	.	.	.
!	!	!	!	!LO:LB:g=original	!	!LO:LB:g=original	!	!LO:LB:g=original	!	!	!	!	!	!	!	!	!	!	!	!	!	!	!	!	!	!	!
=14	=14	=14	=14	=14	=14	=14	=14	=14	=14	=14	=14	=14	=14	=14	=14	=14	=14	=14	=14	=14	=14	=14	=14	=14	=14	=14	=14
*	*	*	*	*	*	*	*	*	*	*	*	*	*	*2\right	*	*	*	*	*	*	*	*	*	*	*	*	*
8E/L	.	.	16A\LL|	(16a/LL	.	(16aa\LL	.	2C/	-lei-	.	2A\	-son	.	2g\	-lei-	.	2ee\	-lei-	.	1d	.	1d	.	2ee\	.	2gg\	.
.	.	.	(16g\	16g#X/)	.	16gg#X\)	.	.	.	.	.	.	.	.	.	.	.	.	.	.	.	.	.	.	.	.	.
8C#X/	.	.	16e\	(16gn/	.	(16ggn\	.	.	.	.	.	.	.	.	.	.	.	.	.	.	.	.	.	.	.	.	.
.	.	.	16g\JJ)	16e/JJ)	.	16ee\JJ)	.	.	.	.	.	.	.	.	.	.	.	.	.	.	.	.	.	.	.	.	.
8AA/	.	.	16A\LL|	16c/LL	.	(16cc\LL	.	.	.	.	.	.	.	.	.	.	.	.	.	.	.	.	.	.	.	.	.
.	.	.	(16g\	16A/	.	16a\)	.	.	.	.	.	.	.	.	.	.	.	.	.	.	.	.	.	.	.	.	.
8C#/J	.	.	16e\	16g/	.	(16gg\	.	.	.	.	.	.	.	.	.	.	.	.	.	.	.	.	.	.	.	.	.
.	.	.	16g\JJ)	16e/JJ	.	16ee\JJ)	.	.	.	.	.	.	.	.	.	.	.	.	.	.	.	.	.	.	.	.	.
!LO:TX:t=P:problem=mixed beam	!	!	!	!	!	!LO:TX:t=P:problem=mixed beam	!	!	!	!	!	!	!	!	!	!	!	!	!	!	!	!	!	!	!	!	!
8D\L	.	.	16A\LL|	(16d/LL	.	(16dd\LL	.	2D\	-son	.	4A\	.	.	2f#\	-son	.	2dd\	-son	.	.	.	.	.	2dd\	.	2ff#\	.
.	.	.	(16f#\	16f#/)	.	16ff#\)	.	.	.	.	.	.	.	.	.	.	.	.	.	.	.	.	.	.	.	.	.
8DD/	.	.	16d\	16A'/	.	16a'/	.	.	.	.	.	.	.	.	.	.	.	.	.	.	.	.	.	.	.	.	.
.	.	.	16f#\JJ)	16A'/JJ	.	16a'/JJ	.	.	.	.	.	.	.	.	.	.	.	.	.	.	.	.	.	.	.	.	.
*	*	*	*	*tremolo	*	*	*	*	*	*	*	*	*	*	*	*	*	*	*	*	*	*	*	*	*	*	*
!	!	!	!	!LO:TX:t=P:problem=poczwórne staccato	!	!	!	!	!	!	!	!	!	!	!	!	!	!	!	!	!	!	!	!	!	!	!
8F#\	.	.	16A`\LL	16A'/LL	.	16a'/LL	.	.	.	.	4r	.	.	.	.	.	.	.	.	.	.	.	.	.	.	.	.
.	.	.	(16f#\	16A'/	.	16a'/	.	.	.	.	.	.	.	.	.	.	.	.	.	.	.	.	.	.	.	.	.
8D\J	.	.	16d\	16A'/	.	16a'/	.	.	.	.	.	.	.	.	.	.	.	.	.	.	.	.	.	.	.	.	.
.	.	.	16f#\JJ)	16A'/JJ	.	16a'/JJ	.	.	.	.	.	.	.	.	.	.	.	.	.	.	.	.	.	.	.	.	.
=15	=15	=15	=15	=15	=15	=15	=15	=15	=15	=15	=15	=15	=15	=15	=15	=15	=15	=15	=15	=15	=15	=15	=15	=15	=15	=15	=15
!	!	!	!LO:TX:t=P:problem=t. 15-16 zapisane jako repetycja t. 13-14	!	!	!	!	!	!	!	!LO:TX:t=P:problem=problem z pionem	!	!	!	!	!	!	!	!	!LO:TX:a:t=2	!	!LO:TX:a:t=2	!	!	!	!	!LO:DY:b:t=piano
!	!	!	!	!	!LO:DY:b:t=piano	!	!LO:DY:b:t=piano	!	!	!	!	!	!	!	!	!	!	!	!LO:DY:b:t=piano.	!	!	!	!	!	!	!	!
8r	.	.	16A\LL|yy	(16G#X/LL	p	(16g#X/LL	p	4.A\	Chri-	.	1ryy	.	.	4.e\	Ky-	.	4.cc\	Ky-	p	0r	.	0r	.	2cc#X\	.	2ee\	p
.	.	.	(16e\yy	16A/	.	16a/	.	.	.	.	.	.	.	.	.	.	.	.	.	.	.	.	.	.	.	.	.
!	!LO:DY:b:t=piano	!	!	!	!	!	!	!	!	!	!	!	!	!	!	!	!	!	!	!	!	!	!	!	!	!	!
8AA/L	p	.	16c\yy	16c#X/	.	16cc/	.	.	.	.	.	.	.	.	.	.	.	.	.	.	.	.	.	.	.	.	.
.	.	.	16e\JJ)yy	16e/JJ)	.	16ee/JJ)	.	.	.	.	.	.	.	.	.	.	.	.	.	.	.	.	.	.	.	.	.
8C#X/	.	.	16A\LL|yy	16d#X/LL	.	(16dd#X\LL	.	.	.	.	.	.	.	.	.	.	.	.	.	.	.	.	.	.	.	.	.
.	.	.	(16e\yy	16e/	.	16ee\	.	.	.	.	.	.	.	.	.	.	.	.	.	.	.	.	.	.	.	.	.
8AA/J	.	.	16c\	16c#/	.	16cc\	.	8A\	-ste	.	.	.	.	8e\	-ri-	.	8cc\	-ri-	.	.	.	.	.	.	.	.	.
.	.	.	16e\JJ)yy	16A/JJ	.	16a\JJ)	.	.	.	.	.	.	.	.	.	.	.	.	.	.	.	.	.	.	.	.	.
!LO:TX:t=P:problem=mixed beam	!	!	!	!	!	!	!	!	!	!	!	!	!	!	!	!	!	!	!	!	!	!	!	!	!	!	!
8DD/L	.	.	16A\LL|yy	16G#X/LL	.	(16g#X\LL	.	4.F#\	e-	.	.	.	.	4f#\	-e	.	4.dd\	-e	.	.	.	.	.	2dd\	.	2ff#\	.
.	.	.	(16f#\yy	16A/	.	16a\	.	.	.	.	.	.	.	.	.	.	.	.	.	.	.	.	.	.	.	.	.
8D\	.	.	16d\yy	16dn/	.	16ddn\	.	.	.	.	.	.	.	.	.	.	.	.	.	.	.	.	.	.	.	.	.
.	.	.	16f#\JJ)yy	16f#/JJ	.	16ff#\JJ)	.	.	.	.	.	.	.	.	.	.	.	.	.	.	.	.	.	.	.	.	.
*	*	*	*	*	*	*tremolo	*	*	*	*	*	*	*	*	*	*	*	*	*	*	*	*	*	*	*	*	*
!	!	!	!	!LO:TX:t=P:problem=poczwórne staccato	!	!LO:TX:t=P:problem=poczwórne staccato	!	!	!	!	!	!	!	!	!	!	!	!	!	!	!	!	!	!	!	!	!
8F#\	.	.	16A\LL|yy	16a'/LL	.	16aa'\LL	.	.	.	.	.	.	.	4f#\	e-	.	.	.	.	.	.	.	.	.	.	.	.
.	.	.	(16f#\yy	16a'/	.	16aa'\	.	.	.	.	.	.	.	.	.	.	.	.	.	.	.	.	.	.	.	.	.
8D\J	.	.	16d\yy	16a'/	.	16aa'\	.	8F#\	-lei-	.	.	.	.	.	.	.	8dd\	e-	.	.	.	.	.	.	.	.	.
.	.	.	16f#\JJ)yy	16a'/JJ	.	16aa'\JJ	.	.	.	.	.	.	.	.	.	.	.	.	.	.	.	.	.	.	.	.	.
!	!	!	!	!	!	!	!	!	!	!	!	!	!	!	!	!	!LO:LB:g=original	!	!	!	!	!	!	!	!	!	!
!LO:LB:g=original	!	!	!	!	!	!	!	!	!	!	!	!	!	!	!	!	!	!	!	!	!	!	!	!LO:LB:g=original	!	!	!
=16	=16	=16	=16	=16	=16	=16	=16	=16	=16	=16	=16	=16	=16	=16	=16	=16	=16	=16	=16	=16	=16	=16	=16	=16	=16	=16	=16
8E/L	.	.	16A\LL|yy	(16a/LL	.	(16aa\LL	.	2C/	-son	.	1ryy	.	.	2g\	-lei-	.	2ee\	-lei-	.	.	.	.	.	2ee\	.	2gg\	.
.	.	.	(16g\yy	16g#X/)	.	16gg#X\)	.	.	.	.	.	.	.	.	.	.	.	.	.	.	.	.	.	.	.	.	.
8C#X/	.	.	16e\yy	(16gn/	.	(16ggn\	.	.	.	.	.	.	.	.	.	.	.	.	.	.	.	.	.	.	.	.	.
.	.	.	16g\JJ)yy	16e/JJ)	.	16ee\JJ)	.	.	.	.	.	.	.	.	.	.	.	.	.	.	.	.	.	.	.	.	.
8AA/	.	.	16A\LL|yy	(16c/LL	.	(16cc\LL	.	.	.	.	.	.	.	.	.	.	.	.	.	.	.	.	.	.	.	.	.
.	.	.	(16g\yy	16A/)	.	16a\)	.	.	.	.	.	.	.	.	.	.	.	.	.	.	.	.	.	.	.	.	.
8C#/J	.	.	16e\yy	(16g/	.	(16gg\	.	.	.	.	.	.	.	.	.	.	.	.	.	.	.	.	.	.	.	.	.
.	.	.	16g\JJ)yy	16e/JJ)	.	16ee\JJ)	.	.	.	.	.	.	.	.	.	.	.	.	.	.	.	.	.	.	.	.	.
!LO:TX:t=P:problem=mixed beam	!	!	!	!	!	!LO:TX:t=P:problem=mixed beam	!	!	!	!	!	!	!	!	!	!	!	!	!	!	!	!	!	!	!	!	!
8D\L	.	.	16A\LL|yy	(16d/LL	.	16dd\LL	.	4D\	.	.	.	.	.	4f#\	-son	.	4dd\	-son	.	.	.	.	.	2dd\	.	2ff#\	.
.	.	.	(16f#\yy	16f#/)	.	16ff#\	.	.	.	.	.	.	.	.	.	.	.	.	.	.	.	.	.	.	.	.	.
8DD/	.	.	16d\yy	16A'/	.	16a'/	.	.	.	.	.	.	.	.	.	.	.	.	.	.	.	.	.	.	.	.	.
.	.	.	16f#\JJ)yy	16A'/JJ	.	16a'/JJ	.	.	.	.	.	.	.	.	.	.	.	.	.	.	.	.	.	.	.	.	.
!	!	!	!	!LO:TX:t=P:problem=poczwórne staccato	!	!LO:TX:t=P:problem=poczwórne staccato	!	!	!	!	!	!	!	!	!	!	!	!	!	!	!	!	!	!	!	!	!
8F#\	.	.	16A\LL|yy	16A'/LL	.	16a'/LL	.	4r	.	.	.	.	.	4r	.	.	4r	.	.	.	.	.	.	.	.	.	.
.	.	.	(16f#\yy	16A'/	.	16a'/	.	.	.	.	.	.	.	.	.	.	.	.	.	.	.	.	.	.	.	.	.
8D\J	.	.	16d\yy	16A'/	.	16a'/	.	.	.	.	.	.	.	.	.	.	.	.	.	.	.	.	.	.	.	.	.
.	.	.	16f#\JJ)yy	16A'/JJ	.	16a'/JJ	.	.	.	.	.	.	.	.	.	.	.	.	.	.	.	.	.	.	.	.	.
*	*	*	*	*Xtremolo	*	*	*	*	*	*	*	*	*	*	*	*	*	*	*	*	*	*	*	*	*	*	*
!	!	!	!	!	!	!	!	!	!	!	!	!	!	!	!	!	!	!	!	!	!	!	!	!	!	!LO:LB:g=original	!
=17	=17	=17	=17	=17	=17	=17	=17	=17	=17	=17	=17	=17	=17	=17	=17	=17	=17	=17	=17	=17	=17	=17	=17	=17	=17	=17	=17
!	!	!	!	!	!LO:DY:b:t=forte	!	!LO:DY:b:t=forte	!	!	!	!	!	!	!	!	!	!	!	!LO:DY:b:t=for	!	!LO:DY:b:t=for	!	!	!	!	!	!
!	!	!	!	!	!	!	!	!	!	!	!	!	!	!	!	!	!	!	!	!	!	!	!	!	!	!	!LO:DY:b:t=for&colon;
8G\L	.	X 5	16B\LL|	(16B/LL	f	16b/LL	f	4G\	Chri-	.	4.d\	Chri-	.	4.g\	Chri-	.	4.b\	Chri-	f	4g\	f	4b\	.	4gg\	.	4bb\	f
.	.	.	(16g\	16A#X/	.	16a#X/	.	.	.	.	.	.	.	.	.	.	.	.	.	.	.	.	.	.	.	.	.
8D\	.	.	16d\	16B/	.	16b/	.	.	.	.	.	.	.	.	.	.	.	.	.	.	.	.	.	.	.	.	.
.	.	.	16g\JJ)	16c/JJ)	.	16cc#X/JJ	.	.	.	.	.	.	.	.	.	.	.	.	.	.	.	.	.	.	.	.	.
8G\	.	.	16B\LL|	(16e/LL	.	(16ee\LL	.	8B\	-ste	.	.	.	.	.	.	.	.	.	.	8g\L	.	8b\L	.	8gg\L	.	8bb\L	.
.	.	.	(16g\	16d/)	.	16dd\	.	.	.	.	.	.	.	.	.	.	.	.	.	.	.	.	.	.	.	.	.
8D\J	.	.	16d\	(16c/	.	16cc#\	.	8G\	.	.	8d\	-ste	.	8g\	-ste	.	8b\	-ste	.	8g\J	.	8b\J	.	8gg\J	.	8bb\J	.
.	.	.	16g\JJ)	16B/JJ)	.	16b\JJ)	.	.	.	.	.	.	.	.	.	.	.	.	.	.	.	.	.	.	.	.	.
*	*	*	*	*	*	*Xtremolo	*	*	*	*	*	*	*	*	*	*	*	*	*	*	*	*	*	*	*	*	*
8F#\L	.	.	16A\LL|	(16B/LL	.	(16b/LL	.	8.D\	au-	.	8.d\	au-	.	8.f#\	au-	.	8.a\	au-	.	8.d\L	.	8.a\L	.	8.ff#\L	.	8.aa\L	.
.	.	.	(16f#\	16An/)	.	16an/)	.	.	.	.	.	.	.	.	.	.	.	.	.	.	.	.	.	.	.	.	.
8D\	.	.	16d\	(16A/	.	(16a/	.	.	.	.	.	.	.	.	.	.	.	.	.	.	.	.	.	.	.	.	.
.	.	.	16f#\JJ)	16d/JJ)	.	16dd/JJ)	.	16D\	-di	.	16d\	-di	.	16f#\	-di	.	16a\	-di	.	16d\Jk	.	16a\Jk	.	16dd\Jk	.	16ff#\Jk	.
!	!	!	!	!LO:LB:g=original	!	!	!	!	!	!	!	!	!	!	!	!	!	!	!	!	!	!	!	!	!	!	!
8F#\	.	.	16A\LL|	(16d/LL	.	(16dd\LL	.	4D\	nos	.	4d\	nos	.	4f#\	nos	.	4a\	nos	.	4d\	.	4a\	.	8ff#\L	.	8aa\L	.
.	.	.	(16f#\	16f#/)	.	16ff#\)	.	.	.	.	.	.	.	.	.	.	.	.	.	.	.	.	.	.	.	.	.
8D\J	.	.	16d\	(16f#/	.	(16ff#\	.	.	.	.	.	.	.	.	.	.	.	.	.	.	.	.	.	8ff#\J	.	8aa\J	.
.	.	.	16f#\JJ)	16d/JJ)	.	16dd\JJ)	.	.	.	.	.	.	.	.	.	.	.	.	.	.	.	.	.	.	.	.	.
!	!	!	!	!	!	!LO:LB:g=original	!	!	!	!	!	!	!	!	!	!	!	!	!	!	!	!	!	!	!	!	!
=18	=18	=18	=18	=18	=18	=18	=18	=18	=18	=18	=18	=18	=18	=18	=18	=18	=18	=18	=18	=18	=18	=18	=18	=18	=18	=18	=18
8G\L	.	.	16B\LL|	(16B/LL	.	(16b\LL	.	4G\	Chri-	.	4d\	Chri-	.	4g\	Chri-	.	4b\	Chri-	.	4g\	.	4b\	.	4gg\	.	4bb\	.
.	.	.	(16g\	16A#X/	.	16a#X\	.	.	.	.	.	.	.	.	.	.	.	.	.	.	.	.	.	.	.	.	.
8D\	.	.	16d\	16B/	.	16b\	.	.	.	.	.	.	.	.	.	.	.	.	.	.	.	.	.	.	.	.	.
.	.	.	16g\JJ)	16c/JJ)	.	16cc\JJ)	.	.	.	.	.	.	.	.	.	.	.	.	.	.	.	.	.	.	.	.	.
8G\	.	.	16B\LL|	(16e/LL	.	(16ee\LL	.	8B\	-ste	.	8d\	-ste	.	8g\	-ste	.	8b\	-ste	.	8g\L	.	8b\L	.	8gg\L	.	8bb\L	.
.	.	.	(16g\	16d/	.	16dd\	.	.	.	.	.	.	.	.	.	.	.	.	.	.	.	.	.	.	.	.	.
8D\J	.	.	16d\	16c/	.	16cc\	.	8G\	ex-	.	8d\	ex-	.	8g\	ex-	.	8b\	ex-	.	8g\J	.	8b\J	.	8gg\J	.	8bb\J	.
.	.	.	16g\JJ)	16B/JJ)	.	16b\JJ)	.	.	.	.	.	.	.	.	.	.	.	.	.	.	.	.	.	.	.	.	.
8F#\L	.	.	16A\LL|	(16B/LL	.	16b/LL	.	8.D\	-au-	.	8.d\	-au-	.	8.f#\	-au-	.	8.a\	-au-	.	8.d\L	.	8.a\L	.	8.ff#\L	.	8.aa\L	.
.	.	.	(16f#\	16An/)	.	(16an/	.	.	.	.	.	.	.	.	.	.	.	.	.	.	.	.	.	.	.	.	.
8D\	.	.	16d\	(16A/	.	16a/)	.	.	.	.	.	.	.	.	.	.	.	.	.	.	.	.	.	.	.	.	.
.	.	.	16f#\JJ)	16d/JJ)	.	16dd/JJ	.	16D\	-di	.	16d\	-di	.	16f#\	-di	.	16a\	-di	.	16d\Jk	.	16a\Jk	.	16dd\Jk	.	16ff#\Jk	.
8F#\	.	.	16A\LL|	16d/LL	.	(16dd\LL	.	4D\	nos	.	4d\	nos	.	4f#\	nos	.	4a\	nos	.	4d\	.	4a\	.	8ff#\L	.	8aa\L	.
.	.	.	(16f#\	(16f#/	.	16ff#\)	.	.	.	.	.	.	.	.	.	.	.	.	.	.	.	.	.	.	.	.	.
8D\J	.	.	16d\	16f#/)	.	(16ff#\	.	.	.	.	.	.	.	.	.	.	.	.	.	.	.	.	.	8ff#\J	.	8aa\J	.
.	.	.	16f#\JJ)	16d/JJ	.	16dd\JJ)	.	.	.	.	.	.	.	.	.	.	.	.	.	.	.	.	.	.	.	.	.
!	!	!	!LO:LB:g=original	!	!	!	!	!	!	!	!	!	!	!LO:LB:g=original	!	!	!	!	!	!	!	!	!	!	!	!	!
=19	=19	=19	=19	=19	=19	=19	=19	=19	=19	=19	=19	=19	=19	=19	=19	=19	=19	=19	=19	=19	=19	=19	=19	=19	=19	=19	=19
!	!	!	!	!	!	!	!	!LO:TX:a:t=1	!	!	!LO:TX:a:t=1	!	!	!LO:TX:a:t=1	!	!	!LO:TX:a:t=1	!	!	!	!	!	!	!	!	!	!
4G\	.	.	8e\L	(16g/LL	.	(>8b\	.	1r	.	.	1r	.	.	1r	.	.	1r	.	.	4g\	.	4b\	.	8gg\L	.	4.gg\	.
.	.	.	.	16b/)	.	.	.	.	.	.	.	.	.	.	.	.	.	.	.	.	.	.	.	.	.	.	.
.	.	.	8b\J	(16e/	.	4gg\	.	.	.	.	.	.	.	.	.	.	.	.	.	.	.	.	.	8ee\	.	.	.
.	.	.	.	16g/JJ)	.	.	.	.	.	.	.	.	.	.	.	.	.	.	.	.	.	.	.	.	.	.	.
4r	.	.	4a\	(16f#/LL	.	.	.	.	.	.	.	.	.	.	.	.	.	.	.	4r	.	4r	.	8ff#\	.	.	.
.	.	.	.	16a/)	.	.	.	.	.	.	.	.	.	.	.	.	.	.	.	.	.	.	.	.	.	.	.
.	.	.	.	(16d/	.	4ff#\)	.	.	.	.	.	.	.	.	.	.	.	.	.	.	.	.	.	8dd\J	.	4ff#\	.
.	.	.	.	16f#/JJ)	.	.	.	.	.	.	.	.	.	.	.	.	.	.	.	.	.	.	.	.	.	.	.
!	!	!	!	!	!	!	!	!	!	!	!	!	!	!	!	!	!	!	!	!	!	!	!	!LO:TX:t=P:problem=mixed beam	!	!	!
2r	.	.	4g\	(16e/LL	.	.	.	.	.	.	.	.	.	.	.	.	.	.	.	2r	.	2r	.	8ee\L	.	.	.
.	.	.	.	16g/)	.	.	.	.	.	.	.	.	.	.	.	.	.	.	.	.	.	.	.	.	.	.	.
.	.	.	.	(16b/	.	4ee\	.	.	.	.	.	.	.	.	.	.	.	.	.	.	.	.	.	8g/	.	4ee\	.
.	.	.	.	16g/JJ)	.	.	.	.	.	.	.	.	.	.	.	.	.	.	.	.	.	.	.	.	.	.	.
.	.	.	4f#\	(16f#/LL	.	.	.	.	.	.	.	.	.	.	.	.	.	.	.	.	.	.	.	8f#/	.	.	.
.	.	.	.	16a/)	.	.	.	.	.	.	.	.	.	.	.	.	.	.	.	.	.	.	.	.	.	.	.
.	.	.	.	(16f#/	.	8dd#X\	.	.	.	.	.	.	.	.	.	.	.	.	.	.	.	.	.	8a/J	.	8dd#X\	.
.	.	.	.	16a/JJ)	.	.	.	.	.	.	.	.	.	.	.	.	.	.	.	.	.	.	.	.	.	.	.
=20	=20	=20	=20	=20	=20	=20	=20	=20	=20	=20	=20	=20	=20	=20	=20	=20	=20	=20	=20	=20	=20	=20	=20	=20	=20	=20	=20
!LO:TX:t=P:problem=mixed beam	!	!	!	!	!	!	!	!	!	!	!	!	!	!	!	!	!	!	!	!	!	!	!	!LO:TX:t=P:problem=mixed beam	!	!	!
!	!	!	!	!	!	!	!	!	!	!	!	!	!	!	!	!	!	!	!	!	!	!	!	!	!	!	!LO:DY:b:t=piano
!	!	!	!	!	!	!	!	!	!	!	!	!	!	!	!	!	!	!	!	!	!LO:DY:b:t=piano	!	!LO:DY:b:t=piano	!	!LO:DY:b:t=piano	!	!
8G\L	.	.	8g\L	8g/L	.	8ee\L	.	8G\	Chri-	.	8B\	Chri-	.	8a\	Chri-	.	8ee\	Chri-	.	4g\	p	4b\	p	8g/L	p	8ee\L	p
*	*	*	*	*	*	*	*	*	*	*	*	*	*	*Xtuplet	*	*	*	*	*	*	*	*	*	*	*	*	*
!	!	!	!	!LO:TUP:b:problem=klamra łukowa	!	!LO:TUP:a:problem=klamra łukowa	!	!	!	!	!	!	!	!	!	!	!LO:TUP:a:problem=klamra łukowa	!	!	!	!	!	!	!	!	!	!
8E\	.	.	8b\	24b/L	.	24gg\L	.	8E\	-ste	.	8B\	-ste	.	24b\LL	-ste	.	24gg\LL	-ste	.	.	.	.	.	(16ee\L	.	16gg\L	.
.	.	.	.	24a/	.	24ff#\	.	.	.	.	.	.	.	24a\	.	.	24ff#\	.	.	.	.	.	.	.	.	.	.
.	.	.	.	.	.	.	.	.	.	.	.	.	.	.	.	.	.	.	.	.	.	.	.	16gg\JJ)	.	16eee\JJ	.
.	.	.	.	24g/JJ	.	24ee\JJ	.	.	.	.	.	.	.	24g\JJ	.	.	24ee\JJ	.	.	.	.	.	.	.	.	.	.
*	*	*	*	*	*	*	*	*	*ij	*	*	*ij	*	*	*	*	*	*	*	*	*	*	*	*	*	*	*
8A\	.	X 3	8a\	8f#/L	.	8ddn\L	.	8A\	Chri-	.	8A\	Chri-	.	8f#\	Chris-	.	8dd\	Chri-	.	8a\L	.	8a\L	.	8ff#\L	.	8dddn\L	.
8AA/J	.	X #	8a\J	8e/J	.	8cc\J	.	8AA/	-ste	.	8A\	-ste	.	8e\	-te	.	8cc\	-ste	.	8a\J	.	8a\J	.	8ee\J	.	8ccc#X\J	.
*	*	*	*	*	*	*	*	*	*Xij	*	*	*Xij	*	*	*	*	*	*	*	*	*	*	*	*	*	*	*
!	!	!	!	!	!LO:DY:b:t=piano	!	!LO:DY:b:t=piano	!	!	!	!	!	!	!	!	!	!	!	!	!	!	!	!	!	!	!	!
2r	.	.	2r	16.f#/LL	p	16.dd\LL	p	2r	.	.	2r	.	.	2r	.	.	2r	.	.	2r	.	2r	.	8ff#\	.	8ddd\	.
.	.	.	.	32f#/K	.	32a\K	.	.	.	.	.	.	.	.	.	.	.	.	.	.	.	.	.	.	.	.	.
.	.	.	.	16.g/	.	16.b\	.	.	.	.	.	.	.	.	.	.	.	.	.	.	.	.	.	8r	.	8r	.
.	.	.	.	32e/JJk	.	32g\JJk	.	.	.	.	.	.	.	.	.	.	.	.	.	.	.	.	.	.	.	.	.
.	.	.	.	8d/L	.	8f#/L	.	.	.	.	.	.	.	.	.	.	.	.	.	.	.	.	.	4r	.	4r	.
.	.	.	.	8c#X/J	.	8e/J	.	.	.	.	.	.	.	.	.	.	.	.	.	.	.	.	.	.	.	.	.
!	!	!	!	!	!	!	!	!	!	!	!LO:LB:g=original	!	!	!	!	!	!	!	!	!	!	!	!	!	!	!	!
!	!	!	!	!	!	!	!	!	!	!	!	!	!	!	!	!	!	!	!	!LO:LB:g=original	!	!LO:LB:g=original	!	!	!	!	!
=21	=21	=21	=21	=21	=21	=21	=21	=21	=21	=21	=21	=21	=21	=21	=21	=21	=21	=21	=21	=21	=21	=21	=21	=21	=21	=21	=21
!	!	!	!	!	!LO:DY:b:t=forte	!	!LO:DY:b:t=forte	!	!	!	!	!	!	!	!	!	!	!	!	!	!	!	!	!	!	!	!
!	!	!	!	!	!	!	!	!	!	!	!	!	!	!	!	!	!	!	!	!	!	!	!LO:DY:b:t=for	!	!LO:DY:b:t=for	!	!LO:DY:b:t=forte
8G\L	.	.	8g\L	(32gg\LLL	f	(32bb\LLL	f	8G\	Chri-	.	8B\	Chri-	.	8g\	Chri-	.	8ee\	Chri-	.	8g\L	.	8b\L	f	(32gg\LLL	f	(32bb\LLL	f
.	.	.	.	32aa\	.	32ccc#X\	.	.	.	.	.	.	.	.	.	.	.	.	.	.	.	.	.	32aa\	.	32ccc#X\	.
.	.	.	.	32bb\	.	32ddd\	.	.	.	.	.	.	.	.	.	.	.	.	.	.	.	.	.	32bb\	.	32ddd\	.
.	.	.	.	32aa\JJJ)	.	32ccc#\)JJJ	.	.	.	.	.	.	.	.	.	.	.	.	.	.	.	.	.	32aa\JJJ)	.	32ccc#\)JJJ	.
8E\	.	.	16dd\L	(32bb\LLL	.	(32ddd\LLL	.	16E\	-ste	.	16B\	-ste	.	16g\	-ste	.	16ee\	-ste	.	16g\L	.	16b\L	.	(32bb\LLL	.	(32ddd\LLL	.
.	.	.	.	32gg\	.	32bb\	.	.	.	.	.	.	.	.	.	.	.	.	.	.	.	.	.	32gg\	.	32bb\	.
!	!	!	!	!	!	!	!	!	!	!	!	!	!	!	!	!	!	!	!	!	!LO:DY:b:t=for	!	!	!	!	!	!
.	.	.	16g\JJ	32ff#\	.	32aa\	.	16G\	ex-	.	16B\	ex-	.	16g\	ex-	.	16ee\	ex-	.	16g\JJ	f	16b\JJ	.	32ff#\	.	32aa\	.
.	.	.	.	32ee\JJJ)	.	32gg\JJJ)	.	.	.	.	.	.	.	.	.	.	.	.	.	.	.	.	.	32ee\JJJ)	.	32gg\JJJ)	.
8A\	.	X 2	8a\L	8dd\L	.	8ff#\L	.	8A\	-au-	.	8A\	-au-	.	8f#\	-au-	.	8dd\	-au-	.	8a\L	.	8a\L	.	8dd\L	.	8ff#\L	.
8AA/J	.	X #	8a\J	8cc#X\J	.	8ee\J	.	8AA/	-di	.	8A\	-di	.	8e\	-di	.	8cc\	-di	.	8a\J	.	8a\J	.	8cc#X\J	.	8ee\J	.
8D\L	.	.	4a\	4g/	.	4ee\	.	4.D\	nos	.	4.A\	nos	.	(4e\	nos	.	(4cc\	nos	.	4a\	.	4a\	.	4g/	.	4ee\	.
8d\	.	.	.	.	.	.	.	.	.	.	.	.	.	.	.	.	.	.	.	.	.	.	.	.	.	.	.
8D\J	.	.	8a\	8f#/	.	8dd\	.	.	.	.	.	.	.	8f#\)	.	.	8dd\)	.	.	8d\	.	8a\	.	8f#/	.	8dd\	.
8r	.	.	8r	8r	.	8r	.	8r	.	.	8r	.	.	8r	.	.	8r	.	.	8r	.	8r	.	8r	.	8r	.
!LO:LB:g=original	!	!	!	!LO:LB:g=original	!	!	!	!LO:LB:g=original	!	!	!	!	!	!	!	!	!LO:LB:g=original	!	!	!	!	!	!	!	!	!	!
=22	=22	=22	=22	=22	=22	=22	=22	=22	=22	=22	=22	=22	=22	=22	=22	=22	=22	=22	=22	=22	=22	=22	=22	=22	=22	=22	=22
!	!LO:DY:b:t=piano	!	!	!	!LO:DY:b:t=piano	!	!LO:DY:b:t=piano	!LO:TX:a:t=2	!	!	!LO:TX:a:t=2	!	!	!	!	!	!	!	!	!LO:TX:a:t=4	!	!LO:TX:a:t=2	!	!LO:TX:a:t=2	!	!LO:TX:a:t=2	!
4D\	p	.	4r	(4.a/	p	(4ff#\	p	0r	.	.	0r	.	.	4a\	Pa-	.	4ff#\	Pa-	.	00r	.	0r	.	0r	.	0r	.
.	.	.	.	.	.	8qqee/	.	.	.	.	.	.	.	.	.	.	.	.	.	.	.	.	.	.	.	.	.
8r	.	.	8a\L	.	.	8dd\L	.	.	.	.	.	.	.	8f#\	-ter	.	8dd\	-ter	.	.	.	.	.	.	.	.	.
.	.	.	.	16qqg/	.	.	.	.	.	.	.	.	.	.	.	.	.	.	.	.	.	.	.	.	.	.	.
8D\	.	.	8a\J	16f#/LL)	.	8dd\J)	.	.	.	.	.	.	.	8r	.	.	8r	.	.	.	.	.	.	.	.	.	.
.	.	.	.	16f#/JJ	.	.	.	.	.	.	.	.	.	.	.	.	.	.	.	.	.	.	.	.	.	.	.
4G\	.	.	4r	4.b/	.	(4gg\	.	.	.	.	.	.	.	4b\	Pa-	.	4gg\	Pa-	.	.	.	.	.	.	.	.	.
.	.	.	.	.	.	8qqff#/	.	.	.	.	.	.	.	.	.	.	.	.	.	.	.	.	.	.	.	.	.
8r	.	.	8a\L	.	.	8ee\L)	.	.	.	.	.	.	.	8g\	-ter	.	8ee\	-ter	.	.	.	.	.	.	.	.	.
.	.	.	.	16qqa/	.	.	.	.	.	.	.	.	.	.	.	.	.	.	.	.	.	.	.	.	.	.	.
8G\	.	.	8a\J	(16g/LL	.	8ee\J|	.	.	.	.	.	.	.	8g\	de	.	8ee\	de	.	.	.	.	.	.	.	.	.
.	.	.	.	16g/JJ)	.	.	.	.	.	.	.	.	.	.	.	.	.	.	.	.	.	.	.	.	.	.	.
!	!	!	!	!	!	!LO:LB:g=original	!	!	!	!	!	!	!	!	!	!	!	!	!	!	!	!	!	!	!	!	!
=23	=23	=23	=23	=23	=23	=23	=23	=23	=23	=23	=23	=23	=23	=23	=23	=23	=23	=23	=23	=23	=23	=23	=23	=23	=23	=23	=23
!LO:TX:t=P:problem=mixed beam	!	!	!	!	!	!	!	!	!	!	!	!	!	!	!	!	!	!	!	!	!	!	!	!	!	!	!
8A\L	.	.	4a\	(16e/LL	.	(16cc#X\LL	.	.	.	.	.	.	.	(16e\LL	Cae-	.	(16cc#X\LL	Cae-	.	.	.	.	.	.	.	.	.
.	.	.	.	16f#/	.	16dd\)	.	.	.	.	.	.	.	16f#\	.	.	16dd\	.	.	.	.	.	.	.	.	.	.
8AA/	.	.	.	16e/	.	16cc#\	.	.	.	.	.	.	.	16e\	.	.	16cc#\)	.	.	.	.	.	.	.	.	.	.
.	.	.	.	16f#/JJ)	.	16dd\JJ	.	.	.	.	.	.	.	16f#\JJ)	.	.	16dd\JJ	.	.	.	.	.	.	.	.	.	.
8C#X/	.	.	8a\L	8g/L	.	8ee'\L	.	.	.	.	.	.	.	8g\	-lis	.	8ee\	-lis	.	.	.	.	.	.	.	.	.
8AA/J	.	.	8a\J	8g/J	.	8ee'\J	.	.	.	.	.	.	.	8g\	De-	.	8ee\	De-	.	.	.	.	.	.	.	.	.
8D/L	.	.	4a\	4g/	.	4ee\	.	.	.	.	.	.	.	4g\	.	.	4ee\	.	.	.	.	.	.	.	.	.	.
8AA/J	.	.	.	.	.	.	.	.	.	.	.	.	.	.	.	.	.	.	.	.	.	.	.	.	.	.	.
4DD/	.	.	4a\	4f#/	.	4dd\	.	.	.	.	.	.	.	4f#\	-us	.	4dd\	-us	.	.	.	.	.	.	.	.	.
=24	=24	=24	=24	=24	=24	=24	=24	=24	=24	=24	=24	=24	=24	=24	=24	=24	=24	=24	=24	=24	=24	=24	=24	=24	=24	=24	=24
!	!	!	!	!	!	!	!	!	!	!	!	!	!	!	!	!	!	!	!	!	!	!LO:TX:b:i:t=poco	!	!	!LO:DY:b:t=poco forte:dur=11e	!	!LO:DY:b:t=poco forte
!	!LO:DY:b:t=forte poco	!	!	!	!LO:DY:b:t=poco forte	!	!LO:DY:b:t=poco forte	!	!	!	!	!	!	!	!	!	!	!	!	!	!	!	!	!	!	!	!
8C#X/L	f	.	4cc\	(16c/LL	f	4ee\	f	4A\	Mi-	.	4c\	Mi-	.	(4.a\	Mi-	.	4ee\	Mi-	.	.	.	[1a	.	4cc\	f	4eee\	f
.	.	.	.	16a/)	.	.	.	.	.	.	.	.	.	.	.	.	.	.	.	.	.	.	.	.	.	.	.
8AA/	.	.	.	(16c/	.	.	.	.	.	.	.	.	.	.	.	.	.	.	.	.	.	.	.	.	.	.	.
.	.	.	.	16a/JJ)	.	.	.	.	.	.	.	.	.	.	.	.	.	.	.	.	.	.	.	.	.	.	.
8D/	.	.	8dd\L	(16d/LL	.	(8ff#\L	.	(8F#\L	-se-	.	(8d\L	-se-	.	.	.	.	(8ff#\L	-se-	.	.	.	.	.	8dd\L	.	(8fff#\L	.
.	.	.	.	16a/)	.	.	.	.	.	.	.	.	.	.	.	.	.	.	.	.	.	.	.	.	.	.	.
8F#/J	.	.	8f#\J	(16f#/	.	8dd\J)	.	8D\J)	.	.	8f#\J)	.	.	8a\)	-se-	.	8dd\J)	.	.	.	.	.	.	8ff#\J	.	8ddd\J)	.
.	.	.	.	16a/JJ)	.	.	.	.	.	.	.	.	.	.	.	.	.	.	.	.	.	.	.	.	.	.	.
8G\L	.	.	4e\	(16g/LL	.	(8dd\L	.	4C/	-re-	.	4g\	-re-	.	4a\	-re-	.	8dd\L	-re-	.	.	.	.	.	4gg\	.	(8ddd\L	.
.	.	.	.	16a/)	.	.	.	.	.	.	.	.	.	.	.	.	.	.	.	.	.	.	.	.	.	.	.
8E\	.	.	.	(16g/	.	8cc#X\J)	.	.	.	.	.	.	.	.	.	.	8cc#X\J	.	.	.	.	.	.	.	.	8ccc#X\J)	.
.	.	.	.	16a/JJ)	.	.	.	.	.	.	.	.	.	.	.	.	.	.	.	.	.	.	.	.	.	.	.
.	.	.	.	.	.	16qqee/	.	.	.	.	.	.	.	.	.	.	.	.	.	.	.	.	.	.	.	.	.
8F#\	.	.	4f#\	(16f#/LL	.	4dd\	.	4D\	-re	.	4f#\	-re	.	4a\	-re	.	4dd\	-re	.	.	.	.	.	4ff#\	.	4ddd\	.
.	.	.	.	16a/)	.	.	.	.	.	.	.	.	.	.	.	.	.	.	.	.	.	.	.	.	.	.	.
8D\J	.	.	.	(16f#/	.	.	.	.	.	.	.	.	.	.	.	.	.	.	.	.	.	.	.	.	.	.	.
.	.	.	.	16a/JJ)	.	.	.	.	.	.	.	.	.	.	.	.	.	.	.	.	.	.	.	.	.	.	.
!	!	!	!	!	!	!	!	!	!	!	!	!	!	!LO:LB:g=original	!	!	!	!	!	!	!	!	!	!	!	!	!
=25	=25	=25	=25	=25	=25	=25	=25	=25	=25	=25	=25	=25	=25	=25	=25	=25	=25	=25	=25	=25	=25	=25	=25	=25	=25	=25	=25
!LO:SIC:v:s=8C#	!	!	!	!	!	!	!	!	!	!	!	!	!	!	!	!	!	!	!	!	!	!	!	!	!	!LO:TX:t=P:problem=t. 25 zapisany jako repetycja t. 24	!
8C/L	.	.	4a\	(16c/LL	.	4ee\	.	4A\	Mi-	.	4c\	Mi-	.	4.a\	Mi-	.	4ee\	Mi-	.	.	.	1a]	.	4cc\	.	4eee\yy	.
.	.	.	.	16a/)	.	.	.	.	.	.	.	.	.	.	.	.	.	.	.	.	.	.	.	.	.	.	.
8AA/	.	.	.	(16c/	.	.	.	.	.	.	.	.	.	.	.	.	.	.	.	.	.	.	.	.	.	.	.
.	.	.	.	16a/JJ)	.	.	.	.	.	.	.	.	.	.	.	.	.	.	.	.	.	.	.	.	.	.	.
.	.	.	.	.	.	16qqgg/	.	.	.	.	.	.	.	.	.	.	16qee/	.	.	.	.	.	.	.	.	.	.
8D/	.	.	8dd\L	(16d/LL	.	(8ff#\L	.	8F#\L	-se-	.	8d\L	-se-	.	.	.	.	8ff#\L	-se-	.	.	.	.	.	8dd\L	.	(8fff#\Lyy	.
.	.	.	.	16a/)	.	.	.	.	.	.	.	.	.	.	.	.	.	.	.	.	.	.	.	.	.	.	.
.	.	.	.	.	.	16qqee/	.	.	.	.	.	.	.	.	.	.	16qqee/	.	.	.	.	.	.	.	.	.	.
8F#/J	.	.	8f#\J	(16f#/	.	8dd\J)	.	8D\J	.	.	8f#\J	.	.	8a\	-se-	.	8dd\J	.	.	.	.	.	.	8ff#\J	.	8ddd\J)yy	.
.	.	.	.	16a/JJ)	.	.	.	.	.	.	.	.	.	.	.	.	.	.	.	.	.	.	.	.	.	.	.
8A\L	.	.	4e\	(16g/LL	.	(8dd\L	.	4G\	-re-	.	4e\	-re-	.	4a\	-re-	.	8dd\L	-re-	.	.	.	.	.	4gg\	.	(8ddd\Lyy	.
.	.	.	.	16a/)	.	.	.	.	.	.	.	.	.	.	.	.	.	.	.	.	.	.	.	.	.	.	.
8G\	.	.	.	(16g/	.	8cc\J)	.	.	.	.	.	.	.	.	.	.	8cc\J	.	.	.	.	.	.	.	.	8ccc#X\J)yy	.
.	.	.	.	16a/JJ)	.	.	.	.	.	.	.	.	.	.	.	.	.	.	.	.	.	.	.	.	.	.	.
.	.	.	.	.	.	16qqee/	.	.	.	.	.	.	.	.	.	.	16qqee/	.	.	.	.	.	.	.	.	.	.
8F#\	.	.	8f#\L	(16f#/LL	.	4dd\	.	4F#\	-re	.	4f#\	-re	.	4a\	-re	.	4dd\	-re	.	.	.	.	.	4ff#\	.	4ddd\yy	.
.	.	.	.	16a/)	.	.	.	.	.	.	.	.	.	.	.	.	.	.	.	.	.	.	.	.	.	.	.
8D\J	.	.	8a\J	(16f#/	.	.	.	.	.	.	.	.	.	.	.	.	.	.	.	.	.	.	.	.	.	.	.
.	.	.	.	16a/JJ)	.	.	.	.	.	.	.	.	.	.	.	.	.	.	.	.	.	.	.	.	.	.	.
!	!	!	!	!	!	!	!	!	!	!	!	!	!	!	!	!	!	!	!	!	!	!	!	!	!	!LO:LB:g=original	!
=26	=26	=26	=26	=26	=26	=26	=26	=26	=26	=26	=26	=26	=26	=26	=26	=26	=26	=26	=26	=26	=26	=26	=26	=26	=26	=26	=26
8A\	.	.	8a\	8a/	.	(8a/	.	2r	.	.	2r	.	.	2r	.	.	2r	.	.	4r	.	4r	.	4r	.	4r	.
4C/	.	.	4a\	4ee\	.	4gg\	.	.	.	.	.	.	.	.	.	.	.	.	.	.	.	.	.	.	.	.	.
.	.	.	.	.	.	.	.	.	.	.	.	.	.	.	.	.	.	.	.	8r	.	8r	.	8r	.	8r	.
8D\	.	.	8a\	8dd\	.	8ff#\)	.	.	.	.	.	.	.	.	.	.	.	.	.	8a\	.	8a\	.	8ddd\	.	8fff#\	.
8A\L	.	.	4a\	4dd\	.	4ff#\	.	4D\	no-	.	4f#\	no-	.	4a\	no-	.	4ff#\	no-	.	4a\	.	4a\	.	4ddd\	.	4fff#\	.
8E\J	.	.	.	.	.	.	.	.	.	.	.	.	.	.	.	.	.	.	.	.	.	.	.	.	.	.	.
.	.	.	.	16qqcc/LL	.	32qqee/LLL	.	.	.	.	.	.	.	.	.	.	(<16qqee/LL	.	.	.	.	.	.	.	.	.	.
.	.	.	.	16qqdd/JJ	.	32qqff#/JJJ	.	.	.	.	.	.	.	.	.	.	16qqff#/JJ)	.	.	.	.	.	.	.	.	.	.
4AA/	.	.	8a\	8cc\	.	8ee\	.	8AA/	-bis	.	8e\	-bis	.	8a\	-bis	.	8ee\	-bis	.	8a\	.	8a\	.	8ccc\	.	8eee\	.
.	.	.	8r	8r	.	8r	.	8r	.	.	8r	.	.	8r	.	.	8r	.	.	8r	.	8r	.	8r	.	8r	.
!	!	!	!LO:LB:g=original	!	!	!	!	!	!	!	!	!	!	!	!	!	!	!	!	!	!	!	!	!	!	!	!
=27	=27	=27	=27	=27	=27	=27	=27	=27	=27	=27	=27	=27	=27	=27	=27	=27	=27	=27	=27	=27	=27	=27	=27	=27	=27	=27	=27
!	!LO:DY:b:t=piano	!	!	!LO:N:vis=4.	!LO:DY:b:t=piano	!	!LO:DY:b:t=piano	!LO:TX:a:t=2	!	!	!LO:TX:a:t=2	!	!	!	!	!	!	!	!	!LO:TX:a:t=5	!	!LO:TX:a:t=2	!	!LO:TX:a:t=2	!	!LO:TX:a:t=2	!
4D\	p	.	4r	4a/	p	(4ff#\	p	0r	.	.	0r	.	.	4a\	Fi-	.	4ff#\	fi-	.	00r	.	0r	.	0r	.	0r	.
.	.	.	.	16qqg/	.	8qqee/	.	.	.	.	.	.	.	.	.	.	.	.	.	.	.	.	.	.	.	.	.
8r	.	.	8a\L	8f#/L	.	8dd\L)	.	.	.	.	.	.	.	8f#\	-li	.	8dd\	-li	.	.	.	.	.	.	.	.	.
8D\	.	.	8a\J	8f#/J	.	8dd\J	.	.	.	.	.	.	.	8r	.	.	8r	.	.	.	.	.	.	.	.	.	.
4G\	.	.	4r	4b/	.	(4gg\	.	.	.	.	.	.	.	4b\	fi-	.	4gg\	fi-	.	.	.	.	.	.	.	.	.
.	.	.	.	16qqa/	.	8qqff#/	.	.	.	.	.	.	.	.	.	.	.	.	.	.	.	.	.	.	.	.	.
8r	.	.	8a\L	8g/L	.	8ee\L)	.	.	.	.	.	.	.	8g\	-li	.	8ee\	-li	.	.	.	.	.	.	.	.	.
8G\	.	.	8a\J	8g/J	.	8ee\J	.	.	.	.	.	.	.	8g\	re-	.	8ee\	Re-	.	.	.	.	.	.	.	.	.
!LO:LB:g=original	!	!	!	!LO:LB:g=original	!	!	!	!	!	!	!	!	!	!	!	!	!LO:LB:g=original	!	!	!	!	!	!	!	!	!	!
=28	=28	=28	=28	=28	=28	=28	=28	=28	=28	=28	=28	=28	=28	=28	=28	=28	=28	=28	=28	=28	=28	=28	=28	=28	=28	=28	=28
4A\	.	.	4a\	16e/LL	.	(16cc#X\LL	.	.	.	.	.	.	.	(16e\LL	-dem-	.	(16cc#X\LL	-dem-	.	.	.	.	.	.	.	.	.
.	.	.	.	16f#/	.	16dd\	.	.	.	.	.	.	.	16f#\JJ)	.	.	16dd\JJ)	.	.	.	.	.	.	.	.	.	.
.	.	.	.	16e/	.	16cc#\	.	.	.	.	.	.	.	(16e\LL	-ptor	.	(16cc#\LL	-ptor	.	.	.	.	.	.	.	.	.
.	.	.	.	16f#/JJ	.	16dd\JJ)	.	.	.	.	.	.	.	16f#\JJ)	.	.	16dd\JJ)	.	.	.	.	.	.	.	.	.	.
8C#X/L	.	.	8a\L	8g/L	.	8ee'\L	.	.	.	.	.	.	.	8g\	mun-	.	8ee\	mun-	.	.	.	.	.	.	.	.	.
8AA/J	.	.	8a\J	8g/J	.	8ee'\J	.	.	.	.	.	.	.	8g\	-di	.	8ee\	-di	.	.	.	.	.	.	.	.	.
8D/L	.	.	4a\	4g/	.	4ee\	.	.	.	.	.	.	.	4g\	De-	.	4ee\	De-	.	.	.	.	.	.	.	.	.
8AA/J	.	.	.	.	.	.	.	.	.	.	.	.	.	.	.	.	.	.	.	.	.	.	.	.	.	.	.
4DD/	.	.	4a\	4f#/	.	4dd\	.	.	.	.	.	.	.	4f#\	-us	.	4dd\	-us	.	.	.	.	.	.	.	.	.
=29	=29	=29	=29	=29	=29	=29	=29	=29	=29	=29	=29	=29	=29	=29	=29	=29	=29	=29	=29	=29	=29	=29	=29	=29	=29	=29	=29
!	!	!	!	!	!	!	!	!	!	!	!	!	!	!	!	!	!	!	!	!	!	!	!	!	!LO:DY:b:t=poco for:dur=11e	!	!LO:DY:b:t=poco for
!	!	!	!	!	!LO:DY:b:t=poco forte	!	!LO:DY:b:t=poco forte	!	!	!	!	!	!	!	!	!	!	!	!	!	!	!	!	!	!	!	!
8C#X/L	.	.	4a\	(16c/LL	f	4ee 4a\	f	4A\	Mi-	.	4c\	Mi-	.	4.a\	Mi-	.	4ee\	Mi-	.	.	.	1a	.	4cc\	f	4eee\	f
.	.	.	.	16a/)	.	.	.	.	.	.	.	.	.	.	.	.	.	.	.	.	.	.	.	.	.	.	.
8AA/	.	.	.	(16c/	.	.	.	.	.	.	.	.	.	.	.	.	.	.	.	.	.	.	.	.	.	.	.
.	.	.	.	16a/JJ)	.	.	.	.	.	.	.	.	.	.	.	.	.	.	.	.	.	.	.	.	.	.	.
8D/	.	.	8dd\L	(16d/LL	.	(8ff#\L	.	8F#\L	-se-	.	8d\L	-se-	.	.	.	.	8ff#\L	-se-	.	.	.	.	.	8dd\L	.	(8fff#\L	.
.	.	.	.	16a/)	.	.	.	.	.	.	.	.	.	.	.	.	.	.	.	.	.	.	.	.	.	.	.
8F#/J	.	.	8f#\J	(16f#/	.	8dd\J)	.	8D\J	.	.	8f#\J	.	.	8a\	-se-	.	8dd\J	.	.	.	.	.	.	8ff#\J	.	8ddd\J)	.
.	.	.	.	16a/JJ)	.	.	.	.	.	.	.	.	.	.	.	.	.	.	.	.	.	.	.	.	.	.	.
8A\L	.	.	4e\	(16g/LL	.	(8dd\L	.	4G\	-re-	.	4e\	-re-	.	4a\	-re-	.	8dd\L	-re-	.	.	.	.	.	4gg\	.	(8ddd\L	.
.	.	.	.	16a/)	.	.	.	.	.	.	.	.	.	.	.	.	.	.	.	.	.	.	.	.	.	.	.
8G\	.	.	.	(16g/	.	8cc\J)	.	.	.	.	.	.	.	.	.	.	8cc\J	.	.	.	.	.	.	.	.	8ccc#X\J)	.
.	.	.	.	16a/JJ)	.	.	.	.	.	.	.	.	.	.	.	.	.	.	.	.	.	.	.	.	.	.	.
.	.	.	.	.	.	8qqee/	.	.	.	.	.	.	.	.	.	.	.	.	.	.	.	.	.	.	.	.	.
8F#\	.	.	4f#\	(16f#/LL	.	4dd\	.	4F#\	-re	.	4f#\	-re	.	4a\	-re	.	4dd\	-re	.	.	.	.	.	4ff#\	.	4ddd\	.
.	.	.	.	16a/)	.	.	.	.	.	.	.	.	.	.	.	.	.	.	.	.	.	.	.	.	.	.	.
8D\J	.	.	.	(16f#/	.	.	.	.	.	.	.	.	.	.	.	.	.	.	.	.	.	.	.	.	.	.	.
.	.	.	.	16a/JJ)	.	.	.	.	.	.	.	.	.	.	.	.	.	.	.	.	.	.	.	.	.	.	.
!	!	!	!	!	!	!LO:LB:g=original	!	!	!	!	!LO:LB:g=original	!	!	!	!	!	!	!	!	!	!	!	!	!	!	!	!
=30	=30	=30	=30	=30	=30	=30	=30	=30	=30	=30	=30	=30	=30	=30	=30	=30	=30	=30	=30	=30	=30	=30	=30	=30	=30	=30	=30
*	*	*	*	*	*	*	*	*	*	*	*	*	*	*	*ij	*	*	*	*	*	*	*	*	*	*	*	*
!LO:SIC:v:s=8C#	!LO:DY:b:t=forte	!	!	!	!	!	!	!	!	!	!	!	!	!	!	!	!	!	!	!	!	!	!	!	!	!LO:TX:t=P:problem=t. 30 zapisany jako repetycja t. 29	!
8C/L	f	.	4a\	(16c/LL	.	4ee 4a\	.	4A\	Mi-	.	4c\	Mi-	.	4.a\	Mi-	.	4ee\	Mi-	.	.	.	1a	.	4cc\	.	4eee\yy	.
.	.	.	.	16a/)	.	.	.	.	.	.	.	.	.	.	.	.	.	.	.	.	.	.	.	.	.	.	.
8AA/	.	.	.	(16c/	.	.	.	.	.	.	.	.	.	.	.	.	.	.	.	.	.	.	.	.	.	.	.
.	.	.	.	16a/JJ)	.	.	.	.	.	.	.	.	.	.	.	.	.	.	.	.	.	.	.	.	.	.	.
.	.	.	.	.	.	16qqgg/	.	.	.	.	.	.	.	.	.	.	.	.	.	.	.	.	.	.	.	.	.
8D/	.	.	8dd\L	(16d/LL	.	8ff#\L	.	8F#\L	-se-	.	8d\L	-se-	.	.	.	.	8ff#\L	-se-	.	.	.	.	.	8dd\L	.	(8fff#\Lyy	.
.	.	.	.	16a/)	.	.	.	.	.	.	.	.	.	.	.	.	.	.	.	.	.	.	.	.	.	.	.
.	.	.	.	.	.	16qqee/	.	.	.	.	.	.	.	.	.	.	.	.	.	.	.	.	.	.	.	.	.
8F#/J	.	.	8f#\J	(16f#/	.	8dd\J	.	8D\J	.	.	8f#\J	.	.	8a\	-se-	.	8dd\J	.	.	.	.	.	.	8ff#\J	.	8ddd\J)yy	.
.	.	.	.	16a/JJ)	.	.	.	.	.	.	.	.	.	.	.	.	.	.	.	.	.	.	.	.	.	.	.
8G\L	.	.	4e\	(16g/LL	.	8dd\L	.	8C/L	-re-	.	4g\	-re-	.	4a\	-re-	.	8dd\L	-re-	.	.	.	.	.	4gg\	.	(8ddd\Lyy	.
.	.	.	.	16a/)	.	.	.	.	.	.	.	.	.	.	.	.	.	.	.	.	.	.	.	.	.	.	.
8E\J	.	.	.	(16g/	.	8cc\J	.	8AA/J	.	.	.	.	.	.	.	.	8cc\J	.	.	.	.	.	.	.	.	8ccc#X\J)yy	.
.	.	.	.	16a/JJ)	.	.	.	.	.	.	.	.	.	.	.	.	.	.	.	.	.	.	.	.	.	.	.
.	.	.	.	.	.	8qqee/	.	.	.	.	.	.	.	.	.	.	.	.	.	.	.	.	.	.	.	.	.
8F#\	.	.	8f#\L	(16f#/LL	.	4dd\	.	4D\	-re	.	4f#\	-re	.	4a\	-re	.	4dd\	-re	.	.	.	.	.	4ff#\	.	4ddd\yy	.
*	*	*	*	*	*	*	*	*	*	*	*	*	*	*	*Xij	*	*	*	*	*	*	*	*	*	*	*	*
.	.	.	.	16a/)	.	.	.	.	.	.	.	.	.	.	.	.	.	.	.	.	.	.	.	.	.	.	.
8r	.	.	8a\J	(16f#/	.	.	.	.	.	.	.	.	.	.	.	.	.	.	.	.	.	.	.	.	.	.	.
.	.	.	.	16a/JJ)	.	.	.	.	.	.	.	.	.	.	.	.	.	.	.	.	.	.	.	.	.	.	.
!	!	!	!	!	!	!	!	!	!	!	!	!	!	!LO:LB:g=original	!	!	!	!	!	!	!	!	!	!	!	!	!
=31	=31	=31	=31	=31	=31	=31	=31	=31	=31	=31	=31	=31	=31	=31	=31	=31	=31	=31	=31	=31	=31	=31	=31	=31	=31	=31	=31
*	*	*	*	*	*	*^	*	*	*	*	*	*	*	*	*	*	*	*	*	*	*	*	*	*	*	*	*
!	!	!	!	!	!LO:DY:b:t=ffor	!	!	!LO:DY:b:t=forte	!	!	!	!	!	!	!	!	!	!	!	!	!	!	!LO:TX:a:t=1	!	!	!	!	!
!	!	!	!	!	!	!	!	!	!	!	!	!	!	!	!	!	!	!	!	!	!	!	!	!	!	!LO:DY:b:t=fo	!	!LO:DY:b:t=for
8G#X\L	.	X 3	8e\L	8b\L	ff	8ee/L	8dd\L	f	8E\	Spi-	.	8B\	Spi-	.	8g\	Spi-	.	8dd\	Spi-	.	1r	.	1r	.	2bb\	f	2ddd\	f
16G#\L	.	.	16e\L	16b\L	.	16ee/L	16dd\L	.	16E\	-ri-	.	16B\	-ri-	.	16g\	-ri-	.	16dd\	-ri-	.	.	.	.	.	.	.	.	.
16G#\JJ	.	.	16e\JJ	16b\JJ	.	16ee/JJ	16dd\JJ	.	16E\	-tus	.	16B\	-tus	.	16g\	-tus	.	16dd\	-tus	.	.	.	.	.	.	.	.	.
8G#\L	.	.	8e\L	8b\L	.	8ee/L	8dd\L	.	8E\	San-	.	8B\	San-	.	8g\	San-	.	8dd\	San-	.	.	.	.	.	.	.	.	.
8G#\J	.	.	8e\J	8b\J	.	8ee/J	8dd\J	.	8E\	-cte	.	8B\	-ctae	.	8g\	-cte	.	8dd\	-cte	.	.	.	.	.	.	.	.	.
!LO:TX:t=P:problem=mixed beam	!	!	!	!	!	!	!	!	!	!	!	!	!	!	!	!	!	!	!	!	!	!	!	!	!	!	!	!
!	!	!	!	!	!	!	!	!LO:DY:b:t=piano	!	!	!	!	!	!	!	!	!	!	!	!	!	!	!	!	!	!LO:DY:b:t=pia	!	!LO:DY:b:t=pia.
8A\L	.	X 3	8e\L	16a/LL	.	(16cc#X\LL	2ryy	p	8A\	De-	.	8A\	De-	.	8e\	De-	.	8cc#X\	De-	.	.	.	.	.	4aa\	p	8ccc\L	p
.	.	.	.	(16e/	.	16ee\	.	.	.	.	.	.	.	.	.	.	.	.	.	.	.	.	.	.	.	.	.	.
!	!	!	!	!	!LO:DY:b:t=piano	!	!	!	!	!	!	!	!	!	!	!	!	!	!	!	!	!	!	!	!	!	!	!
8AA/J	.	.	8e\J	16a/)	p	16aa\	.	.	8AA/	-us	.	8c#X\	-us	.	8e\	-us	.	8ee\	-us	.	.	.	.	.	.	.	8aa\J	.
.	.	.	.	16g#X/JJ	.	16gg#X\JJ)	.	.	.	.	.	.	.	.	.	.	.	.	.	.	.	.	.	.	.	.	.	.
4r	.	.	4r	(16f#/LL	.	(16ff#\LL	.	.	4r	.	.	4r	.	.	4r	.	.	4r	.	.	.	.	.	.	4r	.	4r	.
.	.	.	.	16e/	.	16ee\	.	.	.	.	.	.	.	.	.	.	.	.	.	.	.	.	.	.	.	.	.	.
.	.	.	.	16d/	.	16dd\	.	.	.	.	.	.	.	.	.	.	.	.	.	.	.	.	.	.	.	.	.	.
.	.	.	.	16c#X/JJ)	.	16cc#X\JJ)	.	.	.	.	.	.	.	.	.	.	.	.	.	.	.	.	.	.	.	.	.	.
!	!	!	!	!	!	!	!	!	!LO:LB:g=original	!	!	!	!	!	!	!	!	!	!	!	!	!	!	!	!	!	!	!
=32	=32	=32	=32	=32	=32	=32	=32	=32	=32	=32	=32	=32	=32	=32	=32	=32	=32	=32	=32	=32	=32	=32	=32	=32	=32	=32	=32	=32
*	*	*	*	*	*	*	*	*	*	*	*	*	*	*	*	*ij	*	*	*	*	*	*	*	*	*	*	*	*
!	!	!	!	!LO:TX:t=P:problem=mixed beam	!	!	!	!	!	!	!	!	!	!	!	!	!	!	!	!	!	!	!	!	!	!	!	!
!	!	!	!	!	!LO:DY:b:t=forte	!	!	!LO:DY:b:t=foforte	!	!	!	!	!	!	!	!	!	!	!	!	!	!	!	!	!	!	!	!LO:DY:b:t=for
!	!	!	!	!	!	!	!	!	!	!	!	!	!	!	!	!	!	!	!	!	!	!	!	!	!	!LO:DY:b:t=fo	!	!
8G#X\L	.	5 3	8e\L	8B/L	f	8ee/L	8dd\L	ff	8E\	Spi-	.	8B\	Spi-	.	8g#X\	Spi-	.	8dd\	Spi-	.	2r	.	2r	.	2gg#X\	f	2ddd\	f
16G#\L	.	.	16e\L	16b\L	.	16ee/L	16dd\L	.	16E\	-ri-	.	16B\	-ri-	.	16g#\	-ri-	.	16dd\	-ri-	.	.	.	.	.	.	.	.	.
16G#\JJ	.	.	16e\JJ	16b\JJ	.	16ee/JJ	16dd\JJ	.	16E\	-tus	.	16B\	-tus	.	16g#\	-tus	.	16dd\	-tus	.	.	.	.	.	.	.	.	.
8G#\L	.	.	8e\L	8b\L	.	8ee/L	8dd\L	.	8E\	ſ(an)-	.	8B\	San-	.	8g#\	San-	.	8dd\	San-	.	.	.	.	.	.	.	.	.
8G#\J	.	.	8e\J	8b\J	.	8ee/J	8dd\J	.	8E\	-cte	.	8B\	-ctae	.	8g#\	-cte	.	8dd\	-cte	.	.	.	.	.	.	.	.	.
!	!	!	!	!	!	!	!	!	!	!	!	!	!	!	!	!	!	!LO:LB:g=original	!	!	!	!	!	!	!	!	!	!
!	!	!	!	!	!	!	!	!	!	!	!	!	!	!	!	!	!	!	!	!	!	!LO:DY:b:t=for	!	!LO:DY:b:t=for	!	!	!	!
8A\L	.	X 3	8e\L	(16gn/LL	.	(16cc#X\LL	2ryy	.	4A\	De-	.	4A\	De-	.	4e\	De-	.	4cc\	De-	.	4a\	f	4a\	f	2ggn\	.	2ccc#X\	.
.	.	.	.	16a/)	.	16a\)	.	.	.	.	.	.	.	.	.	.	.	.	.	.	.	.	.	.	.	.	.	.
8A\J	.	.	8e\	(16g/	.	(16ee\	.	.	.	.	.	.	.	.	.	.	.	.	.	.	.	.	.	.	.	.	.	.
.	.	.	.	16a/JJ)	.	16cc#\JJ)	.	.	.	.	.	.	.	.	.	.	.	.	.	.	.	.	.	.	.	.	.	.
8Gn\L	.	.	8gn\	(16e/LL	.	16ggn\LL	.	.	4Gn\	-us	.	4A\	-us	.	4e\	-us	.	4cc\	-us	.	4g\	.	4a\	.	.	.	.	.
*	*	*	*	*	*	*	*	*	*	*	*	*	*	*	*	*Xij	*	*	*	*	*	*	*	*	*	*	*	*
.	.	.	.	16a/)	.	(16ee\	.	.	.	.	.	.	.	.	.	.	.	.	.	.	.	.	.	.	.	.	.	.
8G\J	.	.	8g\J	(16e/	.	16dd\	.	.	.	.	.	.	.	.	.	.	.	.	.	.	.	.	.	.	.	.	.	.
.	.	.	.	16a/JJ)	.	16cc#\JJ)	.	.	.	.	.	.	.	.	.	.	.	.	.	.	.	.	.	.	.	.	.	.
*	*	*	*	*	*	*v	*v	*	*	*	*	*	*	*	*	*	*	*	*	*	*	*	*	*	*	*	*	*
!LO:LB:g=original	!	!	!	!LO:LB:g=original	!	!	!	!	!	!	!	!	!	!	!	!	!	!	!	!	!	!	!	!	!	!	!
=33	=33	=33	=33	=33	=33	=33	=33	=33	=33	=33	=33	=33	=33	=33	=33	=33	=33	=33	=33	=33	=33	=33	=33	=33	=33	=33	=33
8F#\L	.	X 6	8f#\L	16d/LL	.	(16dd\LL	.	8F#\	San-	.	8A\	San-	.	8f#\	San-	.	8dd\	San-	.	4a\	.	4a\	.	4ff#\	.	4.ddd\	.
.	.	.	.	16a/	.	16a\	.	.	.	.	.	.	.	.	.	.	.	.	.	.	.	.	.	.	.	.	.
8F#\	.	.	8f#\	16d/	.	16dd\)	.	8F#\	-cta	.	8A\	-cta	.	8f#\	-cta	.	8dd\	-cta	.	.	.	.	.	.	.	.	.
.	.	.	.	16a/JJ	.	16ff#\JJ	.	.	.	.	.	.	.	.	.	.	.	.	.	.	.	.	.	.	.	.	.
8D\	.	.	8d\	16f#/LL	.	(16aa'\LL	.	16F#\	Tri-	.	16A\	Tri-	.	16f#\	Tri-	.	16dd\	Tri-	.	4d\	.	4a\	.	4r	.	.	.
.	.	.	.	16a/	.	16aa'\)	.	16F#\	-ni-	.	16A\	-ni-	.	16f#\	-ni-	.	16dd\	-ni-	.	.	.	.	.	.	.	.	.
8D\J	.	.	8d\J	16f#/	.	(16aa\	.	8D\	-tas	.	8A\	-tas	.	8f#\	-tas	.	8dd\	-tas	.	.	.	.	.	.	.	8r	.
.	.	.	.	16a/JJ	.	16ff#\JJ)	.	.	.	.	.	.	.	.	.	.	.	.	.	.	.	.	.	.	.	.	.
*	*	*	*	*	*	*	*	*	*	*	*	*	*	*	*	*	*	*	*	*2\right	*	*2\right	*	*	*	*	*
8C#X/L	.	X 3	8a\	8cc#X'\L	.	(16ee\LL	.	4C#X/	u-	.	8c#X\L	u-	.	4a\	u-	.	8ee\L	u-	.	2a\	.	2a\	.	8ee\L	.	2aa\	.
.	.	.	.	.	.	16a\)	.	.	.	.	.	.	.	.	.	.	.	.	.	.	.	.	.	.	.	.	.
8D/	.	X 3	4a\	8dd'\	.	(16ff#\	.	.	.	.	8d\J	.	.	.	.	.	8ff#\J	.	.	.	.	.	.	8ff#\	.	.	.
.	.	.	.	.	.	16a\JJ)	.	.	.	.	.	.	.	.	.	.	.	.	.	.	.	.	.	.	.	.	.
8E/	.	X 3	.	8ee'\	.	(16gg\LL	.	8AA/L	-nus	.	8e\L	-nus	.	4a\	-nus	.	8gg\L	-nus	.	.	.	.	.	8gg\	.	.	.
.	.	.	.	.	.	16a\)	.	.	.	.	.	.	.	.	.	.	.	.	.	.	.	.	.	.	.	.	.
8AA/J	.	X 3	8a\	8cc#'\J	.	(16ee\	.	8C#/J	.	.	8d\J	.	.	.	.	.	8ee\J	.	.	.	.	.	.	8ee\J	.	.	.
.	.	.	.	.	.	16a\JJ)	.	.	.	.	.	.	.	.	.	.	.	.	.	.	.	.	.	.	.	.	.
!	!	!	!LO:LB:g=original	!	!	!	!	!	!	!	!LO:LB:g=original	!	!	!	!	!	!	!	!	!	!	!	!	!	!	!	!
!	!	!	!	!	!	!	!	!	!	!	!	!	!	!	!	!	!	!	!	!	!	!	!	!LO:LB:g=original	!	!	!
=34	=34	=34	=34	=34	=34	=34	=34	=34	=34	=34	=34	=34	=34	=34	=34	=34	=34	=34	=34	=34	=34	=34	=34	=34	=34	=34	=34
8D\L	.	X 3	8a\	(8dd\L	.	(16ff#\LL	.	4D\	u-	.	8d\L	u-	.	4a\	u-	.	8ff#\L	u-	.	1a	.	1a	.	8ff#\L	.	2aa\	.
.	.	.	.	.	.	16a\)	.	.	.	.	.	.	.	.	.	.	.	.	.	.	.	.	.	.	.	.	.
8E\	.	X 3	4a\	8ee\	.	(16gg\	.	.	.	.	8e\J	.	.	.	.	.	8gg\J	.	.	.	.	.	.	8gg\	.	.	.
.	.	.	.	.	.	16a\JJ)	.	.	.	.	.	.	.	.	.	.	.	.	.	.	.	.	.	.	.	.	.
!	!	!	!	!	!	!LO:LB:g=original	!	!	!	!	!	!	!	!	!	!	!	!	!	!	!	!	!	!	!	!	!
8F#\	.	X 3	.	8ff#\	.	(16aa\LL	.	8F#\L	-nus	.	8f#\L	-nus	.	4a\	-nus	.	8aa\L	-nus	.	.	.	.	.	8aa\	.	.	.
.	.	.	.	.	.	16a\)	.	.	.	.	.	.	.	.	.	.	.	.	.	.	.	.	.	.	.	.	.
8D\J	.	X 3	4a\	8dd\J)	.	(16gg\	.	8D\J	.	.	8d\J	.	.	.	.	.	8ff#\J	.	.	.	.	.	.	8ff#\J	.	.	.
.	.	.	.	.	.	16a\JJ)	.	.	.	.	.	.	.	.	.	.	.	.	.	.	.	.	.	.	.	.	.
4A\	.	.	.	8cc\	.	(16ee\LL	.	4A\	De-	.	(8c\	De-	.	4.a\	De-	.	(8ee\	De-	.	.	.	.	.	(8ee\	.	2aa\	.
.	.	.	.	.	.	16a\)	.	.	.	.	.	.	.	.	.	.	.	.	.	.	.	.	.	.	.	.	.
.	.	.	4a\	4ee\	.	(16gg\	.	.	.	.	4e\)	.	.	.	.	.	4gg\)	.	.	.	.	.	.	4gg\)	.	.	.
.	.	.	.	.	.	16a\JJ)	.	.	.	.	.	.	.	.	.	.	.	.	.	.	.	.	.	.	.	.	.
8C#X/L	.	.	.	.	.	(16gg\LL	.	8C#X/L	-us	.	.	.	.	.	.	.	.	.	.	.	.	.	.	.	.	.	.
.	.	.	.	.	.	16a\)	.	.	.	.	.	.	.	.	.	.	.	.	.	.	.	.	.	.	.	.	.
8D/J	.	.	8a\	8dd\	.	(16ff#\	.	8D/J	.	.	8d\	-us	.	8a\	-us	.	8ff#\	-us	.	.	.	.	.	8ff#\	.	.	.
.	.	.	.	.	.	16a\JJ)	.	.	.	.	.	.	.	.	.	.	.	.	.	.	.	.	.	.	.	.	.
=35	=35	=35	=35	=35	=35	=35	=35	=35	=35	=35	=35	=35	=35	=35	=35	=35	=35	=35	=35	=35	=35	=35	=35	=35	=35	=35	=35
8G\L	.	X 3	8a\	(16b\LL	.	16b\LL	.	8G\L	Mi-	.	4B\	Mi-	.	4b\	Mi-	.	8aa\	Mi-	.	4g\	.	4b\	.	4b/	.	8aa\	.
.	.	.	.	16g\)	.	16aa\	.	.	.	.	.	.	.	.	.	.	.	.	.	.	.	.	.	.	.	.	.
8E\	.	.	4g\	(16b\	.	16gg\	.	8E\	.	.	.	.	.	.	.	.	4gg\	.	.	.	.	.	.	.	.	4gg\	.
.	.	.	.	16g\JJ)	.	16b\JJ	.	.	.	.	.	.	.	.	.	.	.	.	.	.	.	.	.	.	.	.	.
8F#\	.	.	.	(16a/LL	.	16a\LL	.	8F#\	-se-	.	4An/	.	.	(4a\	.	.	.	.	.	4a\	.	4a\	.	4a/	.	.	.
.	.	.	.	16f#/)	.	16gg\	.	.	.	.	.	.	.	.	.	.	.	.	.	.	.	.	.	.	.	.	.
8D\J	.	.	4f#\	(16a/	.	16ff#\	.	8D\J	.	.	.	.	.	.	.	.	4ff#\	.	.	.	.	.	.	.	.	4ff#\	.
.	.	.	.	16f#/JJ)	.	16a\JJ	.	.	.	.	.	.	.	.	.	.	.	.	.	.	.	.	.	.	.	.	.
8E\L	.	.	.	(16g/LL	.	16g\LL	.	8E\L	.	.	4Gn/	.	.	4gn\)	.	.	.	.	.	4g\	.	4g\	.	4g/	.	.	.
.	.	.	.	16e/)	.	16ff#\	.	.	.	.	.	.	.	.	.	.	.	.	.	.	.	.	.	.	.	.	.
8C#X\	.	.	4e\	(16g/	.	16ee\	.	8C#X\J	.	.	.	.	.	.	.	.	4ee\	.	.	.	.	.	.	.	.	4ee\	.
.	.	.	.	16e/JJ)	.	16g\JJ	.	.	.	.	.	.	.	.	.	.	.	.	.	.	.	.	.	.	.	.	.
8D\	.	.	.	(16f#/LL	.	(16f#\LL	.	8D\L	.	.	4F#/	-se-	.	4f#\	-se-	.	.	.	.	4d\	.	4a\	.	4f#/	.	.	.
.	.	.	.	16d/)	.	16ee\)	.	.	.	.	.	.	.	.	.	.	.	.	.	.	.	.	.	.	.	.	.
8F#\J	.	.	8d\	(16f#/	.	(16dd\	.	8F#\J	.	.	.	.	.	.	.	.	8dd\	-se-	.	.	.	.	.	.	.	8dd\	.
.	.	.	.	16d/JJ)	.	16ff#\JJ)	.	.	.	.	.	.	.	.	.	.	.	.	.	.	.	.	.	.	.	.	.
!	!	!	!	!	!	!	!	!	!	!	!	!	!	!	!	!	!	!	!	!	!	!LO:LB:g=original	!	!	!	!	!
!	!	!	!	!	!	!	!	!	!	!	!	!	!	!LO:LB:g=original	!	!	!	!	!	!	!	!	!	!	!	!	!
=36	=36	=36	=36	=36	=36	=36	=36	=36	=36	=36	=36	=36	=36	=36	=36	=36	=36	=36	=36	=36	=36	=36	=36	=36	=36	=36	=36
!LO:TX:t=P:problem=mixed beam	!	!	!	!LO:TUP:b:problem=klamra łukowa	!	!LO:TUP:a:problem=klamra łukowa	!	!	!	!	!	!	!	!	!	!	!	!	!	!	!	!	!	!	!	!	!
8G\L	.	.	8g\L	24g/LL	.	24ee\LL	.	8G\	-re-	.	8B\	-re-	.	8g\	-re-	.	8ee\	-re-	.	8g\L	.	8b/L	.	8g/L	.	8ee\L	.
.	.	.	.	24f#/	.	24dd#X\	.	.	.	.	.	.	.	.	.	.	.	.	.	.	.	.	.	.	.	.	.
.	.	.	.	24g/JJ	.	24ee\JJ	.	.	.	.	.	.	.	.	.	.	.	.	.	.	.	.	.	.	.	.	.
*	*	*	*	*Xtuplet	*	*	*	*	*	*	*	*	*	*	*	*	*	*	*	*	*	*	*	*	*	*	*
!	!	!	!	!	!	!LO:TUP:a:problem=klamra łukowa	!	!	!	!	!	!	!	!	!	!	!LO:TUP:a:problem=klamra łukowa	!	!	!	!	!	!	!LO:TUP:b:problem=klamra łukowa	!	!LO:TUP:a:problem=klamra łukowa	!
8E\	.	.	8b\J	24b/LL	.	24gg\LL	.	8E\	-re	.	8B\	-re	.	24b\LL	-re	.	24gg\LL	-re	.	16g\L	.	16b/L	.	24b/L	.	24gg\L	.
.	.	.	.	24a/	.	24ff#\	.	.	.	.	.	.	.	24a\	.	.	24ff#\	.	.	.	.	.	.	24a/	.	24ff#\	.
.	.	.	.	.	.	.	.	.	.	.	.	.	.	.	.	.	.	.	.	16g\JJ	.	16b/JJ	.	.	.	.	.
.	.	.	.	24g/JJ	.	24ee\JJ	.	.	.	.	.	.	.	24g\JJ	.	.	24ee\JJ	.	.	.	.	.	.	24g/JJ	.	24ee\JJ	.
!	!	!	!	!	!	!	!	!LO:TX:t=P:problem=mixed beam	!	!	!	!	!	!	!	!	!	!	!	!	!	!	!	!	!	!	!
8A\	.	X 4	8a\L	8f#/L	.	(8ddn\L	.	8A\L	no-	.	4A\	no-	.	8f#\L	no-	.	8dd\L	no-	.	8a\L	.	8a/L	.	8f#/L	.	8dd\L	.
8AA/J	.	.	8a\J	8e/J	.	8cc#X\J)	.	8AA/J	.	.	.	.	.	8e\J	.	.	8cc#X\J	.	.	8a\J	.	8a/J	.	8e/J	.	8cc#X\J	.
4D\	.	.	4a\	8.f#/L	.	8.ddn\L	.	4D\	-bis	.	4A\	-bis	.	4f#\	-bis	.	4dd\	-bis	.	4d\	.	4a\	.	4f#/	.	4dd\	.
.	.	.	.	16a/Jk	.	16ccn\Jk	.	.	.	.	.	.	.	.	.	.	.	.	.	.	.	.	.	.	.	.	.
4r	.	.	4r	(16g/LL	.	16b/LL	.	4r	.	.	4r	.	.	4r	.	.	4r	.	.	4r	.	4r	.	4r	.	4r	.
.	.	.	.	16c#X/	.	16a/	.	.	.	.	.	.	.	.	.	.	.	.	.	.	.	.	.	.	.	.	.
.	.	.	.	16B/	.	16g/	.	.	.	.	.	.	.	.	.	.	.	.	.	.	.	.	.	.	.	.	.
.	.	.	.	16A/JJ)	.	16f#/JJ	.	.	.	.	.	.	.	.	.	.	.	.	.	.	.	.	.	.	.	.	.
!	!	!	!	!	!	!	!	!LO:LB:g=original	!	!	!	!	!	!	!	!	!LO:LB:g=original	!	!	!	!	!	!	!	!	!LO:LB:g=original	!
=37	=37	=37	=37	=37	=37	=37	=37	=37	=37	=37	=37	=37	=37	=37	=37	=37	=37	=37	=37	=37	=37	=37	=37	=37	=37	=37	=37
!LO:TX:t=P:problem=mixed beam	!	!	!	!	!	!	!	!	!	!	!	!	!	!	!	!	!	!	!	!	!	!	!	!	!	!	!
8G\L	.	X 3	4d\	8.gL 8.G/	.	8.bL 8.d 8.G/	.	4G\	San-	.	4d\	San-	.	8.g\L	San-	.	8.b\L	San-	.	4G/	.	4d/	.	8.gg\L	.	8.bb\L	.
8GG/J	.	.	.	.	.	.	.	.	.	.	.	.	.	.	.	.	.	.	.	.	.	.	.	.	.	.	.
.	.	.	.	16a/Jk	.	16cc/Jk	.	.	.	.	.	.	.	16a\Jk	.	.	16ccn\Jk	.	.	.	.	.	.	16aa\Jk	.	16ccc\Jk	.
8r	.	.	8d\L	8b\L	.	8dd\L	.	8G\	-cta	.	8d\	-cta	.	8b\	-cta	.	8dd\	-cta	.	8G/	.	8d/	.	8bb\L	.	(8ddd\L	.
8Cn/	.	3	8d\J	8cc\J	.	8ee\J	.	8cn\	Ma-	.	8d\	Ma-	.	8ccn\	Ma-	.	8ee\	Ma-	.	8r	.	8r	.	8ccc\J	.	8eee\J)	.
.	.	.	.	.	.	16qqdd/	.	.	.	.	.	.	.	.	.	.	.	.	.	.	.	.	.	.	.	.	.
8.D\L	.	7 5	8d\L	8a/L	.	8cc\L	.	8d\	-ri-	.	8d\	-ri-	.	8a\	-ri-	.	8cc\	-ri-	.	8r	.	8r	.	8aa'\L	.	8ccc\L	.
.	.	.	8d\J	8f#/J	.	8a\J	.	8D/	-a	.	8d\	-a	.	8f#\	-a	.	8b\	-a	.	8d\L	.	8d/L	.	8ff#'\J	.	8aa\J	.
16E\K	.	5 3	.	.	.	.	.	.	.	.	.	.	.	.	.	.	.	.	.	.	.	.	.	.	.	.	.
!	!	!	!	!	!	!LO:TX:t=P:problem=mixed beam	!	!	!	!	!	!	!	!	!	!	!	!	!	!	!	!	!	!	!	!	!
8F#\	.	.	8r	8r	.	(16f#/LL	.	4r	.	.	4r	.	.	4r	.	.	4r	.	.	8d\	.	8d/	.	8r	.	8r	.
.	.	.	.	.	.	16d/)	.	.	.	.	.	.	.	.	.	.	.	.	.	.	.	.	.	.	.	.	.
8D\J	.	.	8d\	(16a/LL	.	(16cc\	.	.	.	.	.	.	.	.	.	.	.	.	.	8d\J	.	8d/J	.	(16aa\LL	.	(16ccc\LL	.
.	.	.	.	16f#/JJ)	.	16a\JJ)	.	.	.	.	.	.	.	.	.	.	.	.	.	.	.	.	.	16ff#\JJ)	.	16aa\JJ)	.
!	!	!	!	!LO:LB:g=original	!	!LO:LB:g=original	!	!	!	!	!	!	!	!	!	!	!	!	!	!	!	!	!	!	!	!	!
!LO:LB:g=original	!	!	!	!	!	!	!	!	!	!	!	!	!	!	!	!	!	!	!	!LO:LB:g=original	!	!	!	!	!	!	!
=38	=38	=38	=38	=38	=38	=38	=38	=38	=38	=38	=38	=38	=38	=38	=38	=38	=38	=38	=38	=38	=38	=38	=38	=38	=38	=38	=38
8G\L	.	.	8d\L	16b/LL	.	(16dd\LL	.	8r	.	.	16r	.	.	16b\LL	o-	.	16dd\LL	o-	.	8G/	.	8d/	.	16bb\LL	.	(16ddd\LL	.
.	.	.	.	16g/	.	16b\)	.	.	.	.	8r	.	.	16g\JJ	.	.	16cc\JJ	.	.	.	.	.	.	(16gg\	.	16bb\)	.
8C\J	.	.	8e\	16e/	.	(16cc\	.	16r	.	.	.	.	.	16e\	-ra	.	16cc\	-ra	.	8r	.	8r	.	16ee\)	.	(16ccc\	.
.	.	.	.	16c/JJ	.	16a\JJ)	.	16c\	pro	.	16c\	pro	.	16e\	pro	.	16a\	pro	.	.	.	.	.	16cc\JJ	.	16aa\JJ)	.
!LO:TX:t=P:problem=mixed beam	!	!	!	!	!	!	!	!LO:TX:t=P:problem=mixed beam	!	!	!	!	!	!	!	!	!	!	!	!	!	!	!	!	!	!	!
8D\L	.	.	8d\	8B/L	.	8g/L	.	8d\L	no-	.	8B\L	no-	.	4d\	no-	.	8g/L	no-	.	8d\L	.	8d/L	.	(8b\L	.	8gg\L	.
8DD/J	.	.	8d\J	8A/J	.	8f#/J	.	8D/J	.	.	8A\J	.	.	.	.	.	8f#/J	.	.	8d\J	.	8d/J	.	8a\J)	.	8ff#\J	.
!LO:TX:t=P:problem=mixed beam	!	!	!	!	!	!	!	!	!	!	!	!	!	!	!	!	!	!	!	!	!	!	!	!	!	!	!
8GG/L	.	.	8d\L	4B/	.	4g/	.	4G\	-bis	.	4B\	-bis	.	4d\	-bis	.	4g/	-bis	.	8G/L	.	8d\L	.	4b\	.	4gg\	.
8G\	.	.	16gn\L	.	.	.	.	.	.	.	.	.	.	.	.	.	.	.	.	16G/L	.	16g\L	.	.	.	.	.
.	.	.	16g\JJ	.	.	.	.	.	.	.	.	.	.	.	.	.	.	.	.	16G/JJ	.	16g\JJ	.	.	.	.	.
8GG/J	.	.	8g\L	4r	.	4r	.	4ryy	.	.	4r	.	.	4r	.	.	4r	.	.	8G/L	.	8g\L	.	4r	.	4r	.
8r	.	.	8g\J	.	.	.	.	.	.	.	.	.	.	.	.	.	.	.	.	8G/J	.	8g\J	.	.	.	.	.
!	!	!	!	!	!	!	!	!	!	!	!LO:LB:g=original	!	!	!	!	!	!	!	!	!	!	!	!	!	!	!	!
=39	=39	=39	=39	=39	=39	=39	=39	=39	=39	=39	=39	=39	=39	=39	=39	=39	=39	=39	=39	=39	=39	=39	=39	=39	=39	=39	=39
!	!	!	!	!	!	!	!	!	!	!	!	!	!	!	!	!LO:DY:a	!	!	!LO:DY:a:t=pia	!	!	!	!	!	!LO:DY:b:t=piano	!	!LO:DY:b:t=pi
!	!	!	!	!	!	!	!	!	!	!	!	!	!	!	!	!	!	!	!	!	!LO:DY:b:t=pia	!	!LO:DY:b:t=pi	!	!	!	!
8G\	.	.	8g\L	16r	.	16r	.	4G\	San-	.	4G/	San-	.	4d\	San-	p	4b\	San-	p	1g	p	1g	p	4b\	p	4dd\	p
!	!	!	!	!	!LO:DY:b:t=piano	!	!LO:DY:b:t=piano	!	!	!	!	!	!	!	!	!	!	!	!	!	!	!	!	!	!	!	!
.	.	.	.	16d/LL|	p	16b\LL|	p	.	.	.	.	.	.	.	.	.	.	.	.	.	.	.	.	.	.	.	.
8r	.	.	8g\	16fn/|	.	16dd\|	.	.	.	.	.	.	.	.	.	.	.	.	.	.	.	.	.	.	.	.	.
.	.	.	.	16d/JJ|	.	16b\JJ|	.	.	.	.	.	.	.	.	.	.	.	.	.	.	.	.	.	.	.	.	.
8C/	.	.	8g\	16r|	.	16r|	.	4G\	-cta	.	4G/	-cta	.	4e\	-cta	.	4cc\	-cta	.	.	.	.	.	4cc\	.	4ee\	.
.	.	.	.	16e/LL|	.	16cc\LL|	.	.	.	.	.	.	.	.	.	.	.	.	.	.	.	.	.	.	.	.	.
8r	.	.	8g\J	16g/|	.	16ee\|	.	.	.	.	.	.	.	.	.	.	.	.	.	.	.	.	.	.	.	.	.
.	.	.	.	16e/JJ|	.	16cc\JJ|	.	.	.	.	.	.	.	.	.	.	.	.	.	.	.	.	.	.	.	.	.
*	*	*	*tremolo	*	*	*	*	*	*	*	*	*	*	*	*	*	*	*	*	*	*	*	*	*	*	*	*
*	*	*	*2\right	*	*	*	*	*	*ij	*	*	*ij	*	*	*ij	*	*	*ij	*	*	*	*	*	*	*	*	*
!	!	!	!	!	!	!	!	!	!	!	!	!	!	!	!	!LO:DY:a	!	!	!LO:DY:a	!	!	!	!	!	!	!	!
!	!	!	!	!	!	!	!	!	!	!	!	!	!	!	!	!	!	!	!LO:DY:a:t=for&colon;	!	!	!	!	!	!	!	!
8GG/	.	.	8g\L	16r	.	16r	.	4.G\	San-	.	4.G/	San-	.	4.d\	San-	f	4.b\	San-	f	.	.	.	.	(4b\	.	4dd\	.
.	.	.	.	16d/LL|	.	16b\LL|	.	.	.	.	.	.	.	.	.	.	.	.	.	.	.	.	.	.	.	.	.
!	!	!	!	!	!LO:DY:b:t=for	!	!	!	!	!	!	!	!	!	!	!	!	!	!	!	!	!	!	!	!	!	!
8r	.	.	8g\	16fn/|	f	16dd\|	.	.	.	.	.	.	.	.	.	.	.	.	.	.	.	.	.	.	.	.	.
!	!	!	!	!	!	!	!LO:DY:b:t=for.	!	!	!	!	!	!	!	!	!	!	!	!	!	!	!	!	!	!	!	!
.	.	.	.	16d/JJ|	.	16b\JJ|	f	.	.	.	.	.	.	.	.	.	.	.	.	.	.	.	.	.	.	.	.
!	!	!	!	!	!	!	!	!	!	!	!	!	!	!	!	!	!	!	!	!	!	!	!	!	!	!	!LO:DY:b:t=for
8GG/L	.	.	8g\	8d'/L	.	8b\L|	.	.	.	.	.	.	.	.	.	.	.	.	.	.	.	.	.	8b\L)	.	(8dd\L	f
8C/J	.	.	8g\J	8e'/J	.	8cc\J|	.	8C/	-cta	.	8G/	-cta	.	8e\	-cta	.	8cc\	-cta	.	.	.	.	.	8cc\J	.	8ee\J)	.
*	*	*	*	*	*	*	*	*2\right	*Xij	*	*	*Xij	*	*	*Xij	*	*	*Xij	*	*	*	*	*	*	*	*	*
=40	=40	=40	=40	=40	=40	=40	=40	=40	=40	=40	=40	=40	=40	=40	=40	=40	=40	=40	=40	=40	=40	=40	=40	=40	=40	=40	=40
!	!	!	!	!	!	!	!	!	!	!LO:DY:a	!	!	!LO:DY:a	!	!	!LO:DY:a	!	!	!LO:DY:a:t=pia	!	!	!	!LO:DY:b:t=for	!	!LO:DY:b:t=fote	!	!LO:DY:b:t=for
8A\	.	X #	8a\L	16r	.	16r	.	2.A\	Ma-	p	2.A\	Ma-	p	(4e\	Ma-	p	(4cc#X\	Ma-	p	1a	.	1a	f	4cc#X\	f	4ee\	f
.	.	.	.	16e/LL|	.	16cc#\LL|	.	.	.	.	.	.	.	.	.	.	.	.	.	.	.	.	.	.	.	.	.
8r	.	.	8a\	16g/|	.	16ee\|	.	.	.	.	.	.	.	.	.	.	.	.	.	.	.	.	.	.	.	.	.
.	.	.	.	16e/JJ|	.	16cc#\JJ|	.	.	.	.	.	.	.	.	.	.	.	.	.	.	.	.	.	.	.	.	.
8D\	.	.	8a\	16r	.	16r	.	.	.	.	.	.	.	4f#\)	.	.	4dd\)	.	.	.	.	.	.	4dd\	.	4ff#\	.
.	.	.	.	16f#X/LL|	.	16dd\LL|	.	.	.	.	.	.	.	.	.	.	.	.	.	.	.	.	.	.	.	.	.
8r	.	.	8a\J	16a/|	.	16ff#\|	.	.	.	.	.	.	.	.	.	.	.	.	.	.	.	.	.	.	.	.	.
.	.	.	.	16f#/JJ|	.	16dd\JJ|	.	.	.	.	.	.	.	.	.	.	.	.	.	.	.	.	.	.	.	.	.
8AA/	.	.	8a\L	16r	.	16r	.	.	.	.	.	.	.	4e\	.	.	4cc#\	.	.	.	.	.	.	(4cc#\	.	4ee\	.
!	!	!	!	!	!LO:DY:b:t=for	!	!	!	!	!	!	!	!	!	!	!	!	!	!	!	!	!	!	!	!	!	!
.	.	.	.	16e/LL|	f	16cc#X\LL|	.	.	.	.	.	.	.	.	.	.	.	.	.	.	.	.	.	.	.	.	.
8r	.	.	8a\	16g/|	.	16ee\|	.	.	.	.	.	.	.	.	.	.	.	.	.	.	.	.	.	.	.	.	.
!	!	!	!	!	!	!	!	!	!	!	!	!	!	!	!	!	!	!	!LO:DY:a	!	!	!	!	!	!	!	!
.	.	.	.	16e/JJ|	.	16cc#\JJ|	.	.	.	.	.	.	.	.	.	.	.	.	f	.	.	.	.	.	.	.	.
!	!	!	!	!	!	!	!LO:DY:b:t=for&colon;	!	!	!	!	!	!	!	!	!	!	!	!	!	!	!	!	!	!	!	!LO:DY:b:t=fr
8AA/L	.	.	8a\	8e/L	.	8cc#\L|	f	8A\	-ri-	.	8A\	-ri-	.	8e\	-ri-	.	8cc#\	-ri-	.	.	.	.	.	8cc#\L)	.	(8ee\L	f
8D/J	.	.	8a\J	8f#/J	.	8dd\J|	.	8D/	-a	.	8A\	-a	.	8f#\	-a	.	8dd\	-a	.	.	.	.	.	8dd\J	.	8ff#\J)	.
!	!	!	!	!	!	!	!	!	!	!	!	!	!	!LO:LB:g=original	!	!	!	!	!	!	!	!	!	!LO:LB:g=original	!	!	!
=41	=41	=41	=41	=41	=41	=41	=41	=41	=41	=41	=41	=41	=41	=41	=41	=41	=41	=41	=41	=41	=41	=41	=41	=41	=41	=41	=41
!	!	!	!	!	!	!	!	!	!	!	!	!	!	!	!	!	!	!	!	!	!	!	!	!	!	!	!LO:DY:b:t=p.
!	!LO:DY:b:t=piano	!	!	!	!	!	!	!	!	!	!	!	!	!	!	!	!	!	!	!	!	!	!LO:DY:b:t=pi	!	!	!	!
8D/	p	.	8d\L	16r	.	16r	.	4D\	San-	.	4d\	San-	.	4a\	San-	.	4ff#\	San-	.	1d	.	1c	p	4a/	.	4ff#\	p
!	!	!	!	!	!LO:DY:b:t=piano	!	!LO:DY:b:t=piano	!	!	!	!	!	!	!	!	!	!	!	!	!	!	!	!	!	!	!	!
.	.	.	.	16a\LL|	p	16ff#\LL|	p	.	.	.	.	.	.	.	.	.	.	.	.	.	.	.	.	.	.	.	.
8r	.	.	8d\	16cc#X\|	.	16aa\|	.	.	.	.	.	.	.	.	.	.	.	.	.	.	.	.	.	.	.	.	.
.	.	.	.	16a\JJ|	.	16ff#\JJ|	.	.	.	.	.	.	.	.	.	.	.	.	.	.	.	.	.	.	.	.	.
8BB/	.	.	8d\	16r	.	16r	.	8B\	-cta	.	8d\	-cta	.	8b\	-cta	.	8gg\	-cta	.	.	.	.	.	4b\	.	4gg\	.
.	.	.	.	16b\LL|	.	16gg\LL|	.	.	.	.	.	.	.	.	.	.	.	.	.	.	.	.	.	.	.	.	.
8r	.	.	8d\J	16dd\|	.	16bb\|	.	8G\	Ma-	.	8d\	Ma-	.	8b\	Ma-	.	8dd\	Ma-	.	.	.	.	.	.	.	.	.
.	.	.	.	16b\JJ|	.	16gg\JJ|	.	.	.	.	.	.	.	.	.	.	.	.	.	.	.	.	.	.	.	.	.
8F#\	.	.	8dd\L	16r	.	16r	.	4F#\	-ri-	.	4d\	-ri-	.	4a\	-ri-	.	4ccn\	-ri-	.	.	.	.	.	4ff#\	.	4aa\	.
.	.	.	.	16f#/LL|	.	16aa\LL|	.	.	.	.	.	.	.	.	.	.	.	.	.	.	.	.	.	.	.	.	.
8r	.	.	8dd\	16a/|	.	16cccn\|	.	.	.	.	.	.	.	.	.	.	.	.	.	.	.	.	.	.	.	.	.
.	.	.	.	16f#/JJ|	.	16aa\JJ|	.	.	.	.	.	.	.	.	.	.	.	.	.	.	.	.	.	.	.	.	.
8G\	.	.	8dd\	16r	.	16r	.	4G\	-a	.	4d\	-a	.	4g\	-a	.	4b\	-a	.	.	.	.	.	4gg\	.	4bb\	.
.	.	.	.	16g/LL|	.	16bb\LL|	.	.	.	.	.	.	.	.	.	.	.	.	.	.	.	.	.	.	.	.	.
8r	.	.	8dd\J	16b/|	.	16ddd\|	.	.	.	.	.	.	.	.	.	.	.	.	.	.	.	.	.	.	.	.	.
.	.	.	.	16g/JJ|	.	16bb\JJ|	.	.	.	.	.	.	.	.	.	.	.	.	.	.	.	.	.	.	.	.	.
*	*	*	*Xtremolo	*	*	*	*	*	*	*	*	*	*	*	*	*	*	*	*	*	*	*	*	*	*	*	*
*	*	*	*	*	*	*	*	*	*	*	*	*	*	*	*	*	*	*	*	*	*	*	*	*	*	*	*
!LO:LB:g=original	!	!	!LO:LB:g=original	!	!	!LO:LB:g=original	!	!	!	!	!	!	!	!	!	!	!LO:LB:g=original	!	!	!	!	!	!	!	!	!	!
=42	=42	=42	=42	=42	=42	=42	=42	=42	=42	=42	=42	=42	=42	=42	=42	=42	=42	=42	=42	=42	=42	=42	=42	=42	=42	=42	=42
4C/	.	.	8cc\L	(8ee\L	.	(8cccn\L	.	4C/	o-	.	8c\L	o-	.	4g\	o-	.	8ee\L	o-	.	2r	.	2r	.	8ee\L	.	8ccc\L	.
.	.	.	(8b\	8dd\)	.	8bb\	.	.	.	.	8B\J	.	.	.	.	.	8dd\J	.	.	.	.	.	.	8dd\	.	8bb\	.
8r	.	.	8a\)	8cc\	.	8aa\	.	8E/	-ra	.	8e'\L	-ra	.	8a\	-ra	.	8cc\	-ra	.	.	.	.	.	8cc\	.	8aa\	.
8C/	.	.	8g\J	8b\J	.	8gg\J)	.	8C/	pro	.	8d'\J	pro	.	8g\	pro	.	8b\	pro	.	.	.	.	.	8b\J	.	8gg\J	.
8D\L	.	X 4	4g\	4b\	.	(4gg\	.	4D\	no-	.	4d\	no-	.	4g\	no-	.	(4b\	no-	.	4d\	.	4d/	.	4b/	.	4gg\	.
8AA\J	.	X 3	.	.	.	.	.	.	.	.	.	.	.	.	.	.	.	.	.	.	.	.	.	.	.	.	.
.	.	.	.	.	.	16qqff#/LL	.	.	.	.	.	.	.	.	.	.	16qqa/LL	.	.	.	.	.	.	.	.	.	.
.	.	.	.	.	.	16qqgg/JJ	.	.	.	.	.	.	.	.	.	.	16qqb/JJ)	.	.	.	.	.	.	.	.	.	.
4DD/	.	.	8a\	8a\	.	8ff#\)	.	8D\	-bis	.	8d\	-bis	.	8f#\	-bis	.	8a\	-bis	.	8d\	.	8d/	.	8a/	.	8ff#\	.
.	.	.	8r	8r	.	8r	.	8r	.	.	8r	.	.	8r	.	.	8r	.	.	8r	.	8r	.	8r	.	8r	.
!	!	!	!	!LO:LB:g=original	!	!	!	!LO:LB:g=original	!	!	!	!	!	!	!	!	!	!	!	!	!	!	!	!	!	!	!
=43	=43	=43	=43	=43	=43	=43	=43	=43	=43	=43	=43	=43	=43	=43	=43	=43	=43	=43	=43	=43	=43	=43	=43	=43	=43	=43	=43
!	!	!	!	!	!	!	!LO:DY:b:t=for.	!	!	!	!	!	!	!	!	!	!	!	!	!	!LO:DY:b:t=for:rj	!	!LO:DY:b:t=for	!	!LO:DY:b:t=for	!	!LO:DY:b:t=for
8r	.	.	16d\LL|	16d/LL|	.	(16dd'\LL	f	4.D\	San-	.	4.A\	San-	.	4.f#\	San-	.	4.dd\	San-	.	2d\	f	2a\	f	2ff#\	f	2aa\	f
!	!	!	!	!	!LO:DY:b:t=forte	!	!	!	!	!	!	!	!	!	!	!	!	!	!	!	!	!	!	!	!	!	!
.	.	.	(16a\	16d/|	f	16dd'\)	.	.	.	.	.	.	.	.	.	.	.	.	.	.	.	.	.	.	.	.	.
!	!LO:DY:b:t=for	!	!	!	!	!	!	!	!	!	!	!	!	!	!	!	!	!	!	!	!	!	!	!	!	!	!
8D\L	f	.	16f#\	(16f#/	.	(16ff#\	.	.	.	.	.	.	.	.	.	.	.	.	.	.	.	.	.	.	.	.	.
.	.	.	16a\JJ)	16a/JJ)	.	16aa\JJ)	.	.	.	.	.	.	.	.	.	.	.	.	.	.	.	.	.	.	.	.	.
8F#\	.	.	16d\LL|	(16g#X/LL	.	(16gg#X\LL	.	.	.	.	.	.	.	.	.	.	.	.	.	.	.	.	.	.	.	.	.
.	.	.	(16a\	16a/	.	16aa\	.	.	.	.	.	.	.	.	.	.	.	.	.	.	.	.	.	.	.	.	.
8D\J	.	.	16f#\	16f#/	.	16ff#\	.	8D\	-cta	.	8A\	-cta	.	8f#\	-cta	.	8dd\	-cta	.	.	.	.	.	.	.	.	.
.	.	.	16a\JJ)	16d/JJ)	.	16dd\JJ)	.	.	.	.	.	.	.	.	.	.	.	.	.	.	.	.	.	.	.	.	.
8G\L	.	.	16d\LL|	(16c#X/LL	.	(16cc#X\LL	.	4BB/	De-	.	4B\	De-	.	4g\	De-	.	4dd\	De-	.	2g\	.	2b\	.	2gg\	.	2bb\	.
.	.	.	(16b\	16d/	.	16dd\	.	.	.	.	.	.	.	.	.	.	.	.	.	.	.	.	.	.	.	.	.
8D\	.	.	16g\	16gn/	.	16ggn\	.	.	.	.	.	.	.	.	.	.	.	.	.	.	.	.	.	.	.	.	.
.	.	.	16b\JJ)	16b/JJ)	.	16bb\JJ)	.	.	.	.	.	.	.	.	.	.	.	.	.	.	.	.	.	.	.	.	.
8BB\	.	.	16d\LL|	(16dd'\LL	.	(16ddd'\LL	.	4G\	-i	.	4B\	-i	.	4g\	-i	.	4dd\	-i	.	.	.	.	.	.	.	.	.
.	.	.	(16b\	16dd'\	.	16ddd'\	.	.	.	.	.	.	.	.	.	.	.	.	.	.	.	.	.	.	.	.	.
8GG\J	.	.	16g\	16dd'\	.	16ddd'\	.	.	.	.	.	.	.	.	.	.	.	.	.	.	.	.	.	.	.	.	.
.	.	.	16b\JJ)	16dd'\JJ)	.	16ddd'\JJ)	.	.	.	.	.	.	.	.	.	.	.	.	.	.	.	.	.	.	.	.	.
!	!	!	!	!	!	!	!	!	!	!	!	!	!	!	!	!	!	!	!	!	!	!LO:LB:g=original	!	!	!	!	!
!	!	!	!	!	!	!	!	!	!	!	!	!	!	!	!	!	!	!	!	!	!	!	!	!	!	!LO:LB:g=original	!
=44	=44	=44	=44	=44	=44	=44	=44	=44	=44	=44	=44	=44	=44	=44	=44	=44	=44	=44	=44	=44	=44	=44	=44	=44	=44	=44	=44
!LO:TX:t=P:problem=mixed beam	!	!	!	!	!	!	!	!	!	!	!	!	!	!	!	!	!	!	!	!	!	!	!	!	!	!	!
8DD/L	.	.	16d\LL|	(16dd\LL	.	(16ddd\LL	.	4.F#\	ge-	.	4.c\	ge-	.	4.a\	Ge-	.	4.dd\	ge-	.	2d\	.	2a\	.	2aa\	.	2ccc\	.
.	.	.	(16cc\	16cc#X\)	.	16ccc#X\	.	.	.	.	.	.	.	.	.	.	.	.	.	.	.	.	.	.	.	.	.
8D\	.	.	16a\	(16ccn\	.	16cccn\	.	.	.	.	.	.	.	.	.	.	.	.	.	.	.	.	.	.	.	.	.
.	.	.	16cc\JJ)	16a\JJ)	.	16aa\JJ)	.	.	.	.	.	.	.	.	.	.	.	.	.	.	.	.	.	.	.	.	.
!	!	!	!	!LO:TX:t=P:problem=mixed beam	!	!	!	!	!	!	!	!	!	!	!	!	!	!	!	!	!	!	!	!	!	!	!
8F#\	.	.	16d\LL|	(16f#/LL	.	(16ff#\LL	.	.	.	.	.	.	.	.	.	.	.	.	.	.	.	.	.	.	.	.	.
.	.	.	(16cc\	16d/)	.	16dd\)	.	.	.	.	.	.	.	.	.	.	.	.	.	.	.	.	.	.	.	.	.
8D\J	.	.	16a\	(16cc\	.	(16ccc\	.	8D\	-ni-	.	8c\	-ni-	.	8a\	-ni-	.	8dd\	-ni-	.	.	.	.	.	.	.	.	.
.	.	.	16cc\JJ)	16a\JJ)	.	16aa\JJ)	.	.	.	.	.	.	.	.	.	.	.	.	.	.	.	.	.	.	.	.	.
!LO:TX:t=P:problem=mixed beam	!	!	!	!	!	!	!	!	!	!	!	!	!	!	!	!	!	!	!	!	!	!	!	!	!	!	!
8G\L	.	.	16d\LL|	(16g/LL	.	(16gg\LL	.	2G\	-trix	.	2B\	-trix	.	2g\	-trix	.	2dd\	-trix	.	2g\	.	2b\	.	2gg\	.	2bb\	.
.	.	.	(16b\	16b/)	.	16bb\)	.	.	.	.	.	.	.	.	.	.	.	.	.	.	.	.	.	.	.	.	.
8GG/	.	.	16g\	16d'/	.	(16dd'\	.	.	.	.	.	.	.	.	.	.	.	.	.	.	.	.	.	.	.	.	.
.	.	.	16b\JJ)	16d'/JJ	.	16dd'\JJ)	.	.	.	.	.	.	.	.	.	.	.	.	.	.	.	.	.	.	.	.	.
*	*	*	*	*tremolo	*	*	*	*	*	*	*	*	*	*	*	*	*	*	*	*	*	*	*	*	*	*	*
!	!	!	!	!LO:TX:t=P:problem=poczwórne staccato	!	!	!	!	!	!	!	!	!	!	!	!	!	!	!	!	!	!	!	!	!	!	!
8BB/	.	.	16d\LL|	16d'/LL	.	16dd'\LL	.	.	.	.	.	.	.	.	.	.	.	.	.	.	.	.	.	.	.	.	.
.	.	.	(16b\	16d'/	.	16dd'\	.	.	.	.	.	.	.	.	.	.	.	.	.	.	.	.	.	.	.	.	.
8GG/J	.	.	16g\	16d'/	.	16dd'\	.	.	.	.	.	.	.	.	.	.	.	.	.	.	.	.	.	.	.	.	.
.	.	.	16b\JJ)	16d'/JJ	.	16dd'\JJ	.	.	.	.	.	.	.	.	.	.	.	.	.	.	.	.	.	.	.	.	.
!	!	!	!	!	!	!	!	!	!	!	!LO:LB:g=original	!	!	!	!	!	!	!	!	!	!	!	!	!	!	!	!
=45	=45	=45	=45	=45	=45	=45	=45	=45	=45	=45	=45	=45	=45	=45	=45	=45	=45	=45	=45	=45	=45	=45	=45	=45	=45	=45	=45
!	!	!	!LO:TX:t=P:problem=t. 45-46 zapisane jako repetycja t. 43-44	!	!	!	!	!	!	!	!	!	!	!	!	!	!	!	!	!	!	!	!	!	!	!	!
!	!	!	!	!	!LO:DY:b:t=piano	!	!LO:DY:b:t=piano	!	!	!	!	!	!	!	!	!	!	!	!	!	!	!	!	!	!	!	!LO:DY:b:t=piano
!	!	!	!	!	!	!	!	!	!	!	!	!	!	!	!	!	!	!	!	!	!LO:DY:b:t=pi	!	!LO:DY:b:t=piano	!	!LO:DY:b:t=piano	!	!
8r	.	.	16d\LL|yy	(16c#X/LL	p	(16cc#X\LL	p	2D\	o-	.	2A\	o-	.	2f#\	o-	.	2dd\	o-	.	2d\	p	2a\	p	2ff#\	p	2aa\	p
.	.	.	(16a\yy	16d/	.	16dd\	.	.	.	.	.	.	.	.	.	.	.	.	.	.	.	.	.	.	.	.	.
!	!LO:DY:b:t=piano	!	!	!	!	!	!	!	!	!	!	!	!	!	!	!	!	!	!	!	!	!	!	!	!	!	!
8D\L	p	.	16f#\yy	16f#/	.	16ff#\	.	.	.	.	.	.	.	.	.	.	.	.	.	.	.	.	.	.	.	.	.
.	.	.	16a\JJ)yy	16a/JJ)	.	16aa\JJ)	.	.	.	.	.	.	.	.	.	.	.	.	.	.	.	.	.	.	.	.	.
8F#\	.	.	16d\LL|yy	(16g#X/LL	.	(16gg#X\LL	.	.	.	.	.	.	.	.	.	.	.	.	.	.	.	.	.	.	.	.	.
.	.	.	(16a\yy	16a/	.	16aa\)	.	.	.	.	.	.	.	.	.	.	.	.	.	.	.	.	.	.	.	.	.
8D\J	.	.	16f#\yy	16f#/	.	16ff#\	.	.	.	.	.	.	.	.	.	.	.	.	.	.	.	.	.	.	.	.	.
.	.	.	16a\JJ)yy	16d/JJ)	.	16dd\JJ	.	.	.	.	.	.	.	.	.	.	.	.	.	.	.	.	.	.	.	.	.
8G\L	.	.	16d\LL|yy	16c#X/LL	.	16cc#X\LL	.	4.BB/	-ra	.	4.B\	-ra	.	4.g\	-ra	.	4.dd\	-ra	.	2g\	.	2b\	.	2gg\	.	2bb\	.
.	.	.	(16b\yy	16d/	.	16ee\	.	.	.	.	.	.	.	.	.	.	.	.	.	.	.	.	.	.	.	.	.
8D\	.	.	16g\yy	16gn/	.	16ggn\	.	.	.	.	.	.	.	.	.	.	.	.	.	.	.	.	.	.	.	.	.
.	.	.	16b\JJ)yy	16b/JJ	.	16bb\JJ	.	.	.	.	.	.	.	.	.	.	.	.	.	.	.	.	.	.	.	.	.
*	*	*	*	*	*	*tremolo	*	*	*	*	*	*	*	*	*	*	*	*	*	*	*	*	*	*	*	*	*
!	!	!	!	!LO:TX:t=P:problem=poczwórne staccato	!	!LO:TX:t=P:problem=poczwórne staccato	!	!	!	!	!	!	!	!	!	!	!	!	!	!	!	!	!	!	!	!	!
8BB\	.	.	16d\LL|yy	16dd'\LL	.	16ddd'\LL	.	.	.	.	.	.	.	.	.	.	.	.	.	.	.	.	.	.	.	.	.
.	.	.	(16b\yy	16dd'\	.	16ddd'\	.	.	.	.	.	.	.	.	.	.	.	.	.	.	.	.	.	.	.	.	.
8GG\J	.	.	16g\yy	16dd'\	.	16ddd'\	.	8G\	pro	.	8B\	pro	.	8g\	pro	.	8dd\	pro	.	.	.	.	.	.	.	.	.
.	.	.	16b\JJ)yy	16dd'\JJ	.	16ddd'\JJ	.	.	.	.	.	.	.	.	.	.	.	.	.	.	.	.	.	.	.	.	.
!	!	!	!	!	!	!LO:LB:g=original	!	!	!	!	!	!	!	!	!	!	!	!	!	!	!	!	!	!	!	!	!
=46	=46	=46	=46	=46	=46	=46	=46	=46	=46	=46	=46	=46	=46	=46	=46	=46	=46	=46	=46	=46	=46	=46	=46	=46	=46	=46	=46
!LO:TX:t=P:problem=mixed beam	!	!	!	!	!	!	!	!	!	!	!	!	!	!	!	!	!	!	!	!	!	!	!	!	!	!	!
8DD/L	.	.	16d\LL|yy	(16dd\LL	.	(16ddd\LL	.	4F#\	no-	.	2c\	no-	.	2a\	no-	.	2dd\	no-	.	2d\	.	2a\	.	2aa\	.	2ccc\	.
.	.	.	(16cc\yy	16cc#X\	.	16ccc#X\	.	.	.	.	.	.	.	.	.	.	.	.	.	.	.	.	.	.	.	.	.
8D\	.	.	16a\yy	16ccn\	.	16cccn\	.	.	.	.	.	.	.	.	.	.	.	.	.	.	.	.	.	.	.	.	.
.	.	.	16cc\JJ)yy	16a\JJ)	.	16aa\JJ)	.	.	.	.	.	.	.	.	.	.	.	.	.	.	.	.	.	.	.	.	.
!	!	!	!	!LO:TX:t=P:problem=mixed beam	!	!	!	!	!	!	!	!	!	!	!	!	!	!	!	!	!	!	!	!	!	!	!
8F#\	.	.	16d\LL|yy	(16f#/LL	.	(16ff#\LL	.	4D\	.	.	.	.	.	.	.	.	.	.	.	.	.	.	.	.	.	.	.
.	.	.	(16cc\yy	16d/)	.	16dd\)	.	.	.	.	.	.	.	.	.	.	.	.	.	.	.	.	.	.	.	.	.
8D\J	.	.	16a\yy	(>16cc\	.	(16ccc\	.	.	.	.	.	.	.	.	.	.	.	.	.	.	.	.	.	.	.	.	.
.	.	.	16cc\JJ)yy	16a\JJ)	.	16aa\JJ)	.	.	.	.	.	.	.	.	.	.	.	.	.	.	.	.	.	.	.	.	.
!LO:TX:t=P:problem=mixed beam	!	!	!	!	!	!	!	!	!	!	!	!	!	!	!	!	!	!	!	!	!	!	!	!	!	!	!
8G/L	.	.	16d\LL|yy	(16g/LL	.	(16gg\LL	.	4G\	-bis	.	4B\	-bis	.	4g\	-bis	.	4dd\	-bis	.	4B/	.	4g\	.	2gg\	.	2bb\	.
.	.	.	(16b\yy	16b/)	.	16bb\)	.	.	.	.	.	.	.	.	.	.	.	.	.	.	.	.	.	.	.	.	.
8GG/	.	.	16g\yy	16d'/	.	16dd'\	.	.	.	.	.	.	.	.	.	.	.	.	.	.	.	.	.	.	.	.	.
.	.	.	16b\JJ)yy	16d'/JJ	.	16dd'\JJ	.	.	.	.	.	.	.	.	.	.	.	.	.	.	.	.	.	.	.	.	.
!	!	!	!	!LO:TX:t=P:problem=poczwórne staccato	!	!LO:TX:t=P:problem=poczwórne staccato	!	!	!	!	!	!	!	!	!	!	!	!	!	!	!	!	!	!	!	!	!
8BB/	.	.	16d\LL|yy	16d'/LL	.	16dd'\LL	.	4r	.	.	4r	.	.	4r	.	.	4r	.	.	4r	.	4r	.	.	.	.	.
.	.	.	(16b\yy	16d'/	.	16dd'\	.	.	.	.	.	.	.	.	.	.	.	.	.	.	.	.	.	.	.	.	.
8GG/J	.	.	16g\yy	16d'/	.	16dd'\	.	.	.	.	.	.	.	.	.	.	.	.	.	.	.	.	.	.	.	.	.
.	.	.	16b\JJ)yy	16d'/JJ	.	16dd'\JJ	.	.	.	.	.	.	.	.	.	.	.	.	.	.	.	.	.	.	.	.	.
*	*	*	*	*	*	*Xtremolo	*	*	*	*	*	*	*	*	*	*	*	*	*	*	*	*	*	*	*	*	*
*	*	*	*	*Xtremolo	*	*	*	*	*	*	*	*	*	*	*	*	*	*	*	*	*	*	*	*	*	*	*
!LO:LB:g=original	!	!	!	!LO:LB:g=original	!	!	!	!	!	!	!	!	!	!LO:LB:g=original	!	!	!	!	!	!	!	!	!	!	!	!	!
=47	=47	=47	=47	=47	=47	=47	=47	=47	=47	=47	=47	=47	=47	=47	=47	=47	=47	=47	=47	=47	=47	=47	=47	=47	=47	=47	=47
!	!	!	!	!	!LO:DY:b:t=forte	!	!LO:DY:b:t=forr	!	!	!	!	!	!	!	!	!	!	!	!	!	!	!	!	!	!	!	!LO:DY:b:t=for
!	!LO:DY:b:t=forte	!	!	!	!	!	!	!	!	!	!	!	!	!	!	!	!	!	!	!	!LO:DY:b:t=for	!LO:N:vis=4.	!	!	!	!	!
8C/L	f	.	16c\LL|	(16e/LL	f	(16ee\LL	f	8.C/	San-	.	8.c\	San-	.	8.g\	San-	.	8.ee\	San-	.	4G/	f	4g\	.	4ee'\	.	4ccc\	f
.	.	.	(16g\	16d#X/	.	16dd#X\	.	.	.	.	.	.	.	.	.	.	.	.	.	.	.	.	.	.	.	.	.
8GG/	.	.	16e\	16e/	.	16ee\	.	.	.	.	.	.	.	.	.	.	.	.	.	.	.	.	.	.	.	.	.
.	.	.	16g\JJ)	16f#/JJ)	.	16ff#\JJ)	.	16C/	-cta	.	16c\	-cta	.	16g\	-cta	.	16ee\	-cta	.	.	.	.	.	.	.	.	.
!	!	!	!	!	!	!	!	!	!	!	!LO:N:vis=16	!	!	!	!	!	!	!	!	!	!	!	!	!	!	!	!
8C/	.	.	16c\LL|	(16a/LL	.	(16aa\LL	.	8E\	Vir-	.	8c\	Vir-	.	8g\	Vir-	.	8ee\	Vir-	.	8G/L	.	8g\L	.	8ee\L	.	8ccc\L	.
.	.	.	(16g\	16g/	.	16gg\	.	.	.	.	.	.	.	.	.	.	.	.	.	.	.	.	.	.	.	.	.
8GG/J	.	.	16e\	16f#/	.	16ff#\	.	8C\	-go	.	8c\	-go	.	8g\	-go	.	8ee\	-go	.	8G/J	.	8g\J	.	8ee\J	.	8ccc\J	.
.	.	.	16g\JJ)	16e/JJ)	.	16ee\JJ)	.	.	.	.	.	.	.	.	.	.	.	.	.	.	.	.	.	.	.	.	.
8BB/L	.	.	16B\LL|	(16e/LL	.	(16ee\LL	.	8.G\	Vir-	.	8.B\	Vir-	.	8.g\	Vir-	.	8.dd\	Vir-	.	8.G/L	.	8.g\L	.	8.dd\L	.	8.bb\L	.
.	.	.	(16g\	16dn/)	.	16ddn\)	.	.	.	.	.	.	.	.	.	.	.	.	.	.	.	.	.	.	.	.	.
8GG/	.	.	16d\	(16d/	.	(16dd\	.	.	.	.	.	.	.	.	.	.	.	.	.	.	.	.	.	.	.	.	.
.	.	.	16g\JJ)	16g/JJ)	.	16gg\JJ)	.	16G\	-gi-	.	16B\	-gi-	.	16g\	-gi-	.	16dd\	-gi-	.	16G/Jk	.	16g\Jk	.	16b\Jk	.	16gg\Jk	.
8BB/	.	.	16B\LL|	(16g/LL	.	(16gg\LL	.	4G\	-num	.	4B\	-num	.	4g\	-num	.	4dd\	-num	.	4G/	.	4g\	.	8dd\L	.	8bb\L	.
.	.	.	(16g\	16b/)	.	16bb\)	.	.	.	.	.	.	.	.	.	.	.	.	.	.	.	.	.	.	.	.	.
8GG/J	.	.	16d\	(16b/	.	(16bb\	.	.	.	.	.	.	.	.	.	.	.	.	.	.	.	.	.	8dd\J	.	8bb\J	.
.	.	.	16g\JJ)	16g/JJ)	.	16gg\JJ)	.	.	.	.	.	.	.	.	.	.	.	.	.	.	.	.	.	.	.	.	.
!	!	!	!	!	!	!	!	!	!	!	!	!	!	!	!	!	!LO:LB:g=original	!	!	!	!	!	!	!	!	!	!
!	!	!	!	!	!	!	!	!	!	!	!	!	!	!	!	!	!	!	!	!LO:LB:g=original	!	!	!	!	!	!	!
=48	=48	=48	=48	=48	=48	=48	=48	=48	=48	=48	=48	=48	=48	=48	=48	=48	=48	=48	=48	=48	=48	=48	=48	=48	=48	=48	=48
*	*	*	*	*	*	*	*	*	*ij	*	*	*ij	*	*	*ij	*	*	*	*	*	*	*	*	*	*	*	*
!	!	!	!LO:TX:t=P:problem=t. 48 zapisany jako repetycja t. 47	!	!	!	!	!	!	!	!	!	!	!	!	!	!	!	!	!LO:TX:a:t=1	!	!LO:TX:a:t=1	!	!	!	!	!
!	!	!	!	!	!	!	!LO:DY:b:t=piano	!	!	!	!	!	!	!	!	!	!	!	!	!	!	!	!	!	!	!	!
8C/L	.	.	16c\LL|yy	(16e/LL	.	(16ee\LL	p	8.C/	San-	.	8.c\	San-	.	8.g\	San-	.	8.ee\	San-	.	1r	.	1r	.	4ee\	.	4ccc\	.
!	!	!	!	!	!LO:DY:b:t=piano	!	!	!	!	!	!	!	!	!	!	!	!	!	!	!	!	!	!	!	!	!	!
.	.	.	(16g\yy	16d#X/	p	16dd#X\	.	.	.	.	.	.	.	.	.	.	.	.	.	.	.	.	.	.	.	.	.
!	!LO:DY:b:t=piano	!	!	!	!	!	!	!	!	!	!	!	!	!	!	!	!	!	!	!	!	!	!	!	!	!	!
8GG/	p	.	16e\yy	16e/	.	16ee\	.	.	.	.	.	.	.	.	.	.	.	.	.	.	.	.	.	.	.	.	.
.	.	.	16g\JJ)yy	16f#/JJ)	.	16ff#\JJ)	.	16C/	-cta	.	16c\	-cta	.	16g\	-cta	.	16ee\	-cta	.	.	.	.	.	.	.	.	.
8C/	.	.	16c\LL|yy	(16a/LL	.	(16aa\LL	.	8E\	Vir-	.	8c\	Vir-	.	8g\	Vir-	.	8ee\	Vir-	.	.	.	.	.	8ee\L	.	8ccc\L	.
.	.	.	(16g\yy	16g/	.	16gg\	.	.	.	.	.	.	.	.	.	.	.	.	.	.	.	.	.	.	.	.	.
8GG/J	.	.	16e\yy	16f#/	.	16ff#\	.	8C\	-go	.	8c\	-go	.	8g\	-go	.	8ee\	-go	.	.	.	.	.	8ee\J	.	8ccc\J	.
.	.	.	16g\JJ)yy	16e/JJ)	.	16ee\JJ)	.	.	.	.	.	.	.	.	.	.	.	.	.	.	.	.	.	.	.	.	.
!	!	!	!	!	!	!	!	!	!	!	!	!	!	!LO:N:vis=8	!	!	!	!	!	!	!	!	!	!	!	!	!
8BB/L	.	.	16B\LL|yy	16e/KL	.	(16ee\KL	.	8.G\	Vir-	.	8.B\	Vir-	.	8.g\	Vir-	.	8.dd\	Vir-	.	.	.	.	.	8.dd\L	.	8.bb\L	.
.	.	.	(16g\yy	(8dn/	.	8ddn\	.	.	.	.	.	.	.	.	.	.	.	.	.	.	.	.	.	.	.	.	.
8GG/	.	.	16d\yy	.	.	.	.	.	.	.	.	.	.	.	.	.	.	.	.	.	.	.	.	.	.	.	.
.	.	.	16g\JJ)yy	8g/	.	8gg\	.	16G\	-gi-	.	16B\	-gi-	.	16g\	-gi-	.	16dd\	-gi-	.	.	.	.	.	16b\Jk	.	16gg\Jk	.
!	!	!	!	!	!	!	!	!	!	!	!	!	!	!LO:N:xstem	!	!	!	!	!	!	!	!	!	!	!	!	!
8BB/	.	.	16B\LL|yy	.	.	.	.	4G\	-num	.	4B\	-num	.	8g\	-num	.	4dd\	-num	.	.	.	.	.	8dd\L	.	8bb\L	.
*	*	*	*	*	*	*	*	*	*Xij	*	*	*Xij	*	*	*Xij	*	*	*	*	*	*	*	*	*	*	*	*
.	.	.	(16g\yy	8b/)	.	8bb\	.	.	.	.	.	.	.	.	.	.	.	.	.	.	.	.	.	.	.	.	.
8GG/J	.	.	16d\yy	.	.	.	.	.	.	.	.	.	.	8g\	.	.	.	.	.	.	.	.	.	8dd\J	.	8bb\J	.
.	.	.	16g\JJ)yy	16g/Jk	.	16gg\Jk)	.	.	.	.	.	.	.	.	.	.	.	.	.	.	.	.	.	.	.	.	.
!	!	!	!	!	!	!	!	!LO:LB:g=original	!	!	!	!	!	!	!	!	!	!	!	!	!	!	!	!	!	!	!
!	!	!	!	!	!	!	!	!	!	!	!	!	!	!	!	!	!	!	!	!	!	!	!	!LO:LB:g=original	!	!	!
=49	=49	=49	=49	=49	=49	=49	=49	=49	=49	=49	=49	=49	=49	=49	=49	=49	=49	=49	=49	=49	=49	=49	=49	=49	=49	=49	=49
!	!	!	!	!	!LO:DY:b:t=forte	!	!LO:DY:b:t=for.	!	!	!	!	!	!	!	!	!	!	!	!	!	!	!	!	!	!	!	!
8C/L	.	X 6	16c\LL|	16e/KL	f	(16ee\KL	f	4C/	o-	.	4c\	o-	.	4a\	o-	.	4ee\	o-	.	2r	.	2r	.	2ee\	.	2ccc\	.
.	.	.	(16a\	8a/	.	8aa\	.	.	.	.	.	.	.	.	.	.	.	.	.	.	.	.	.	.	.	.	.
!	!LO:DY:b:t=for	!	!	!	!	!	!	!	!	!	!	!	!	!	!	!	!	!	!	!	!	!	!	!	!	!	!
8AA/	f	.	16e\	.	.	.	.	.	.	.	.	.	.	.	.	.	.	.	.	.	.	.	.	.	.	.	.
.	.	.	16a\JJ)	16cc/Jk	.	16ccc\Jk)	.	.	.	.	.	.	.	.	.	.	.	.	.	.	.	.	.	.	.	.	.
8E/	.	X 6	16c\LL|	(16ee\LL	.	(16ccc\LL	.	8C/	-ra	.	8c\	-ra	.	8a\	-ra	.	8ee\	-ra	.	.	.	.	.	.	.	.	.
.	.	.	(16a\	16cc\)	.	16aa\)	.	.	.	.	.	.	.	.	.	.	.	.	.	.	.	.	.	.	.	.	.
8C/J	.	X 6	16e\	(16ee\	.	(16ccc\	.	8AA/	pro	.	8e\	pro	.	8cc\	pro	.	8aa\	pro	.	.	.	.	.	.	.	.	.
.	.	.	16a\JJ)	16cc\JJ)	.	16aa\JJ)	.	.	.	.	.	.	.	.	.	.	.	.	.	.	.	.	.	.	.	.	.
!LO:TX:t=P:problem=mixed beam	!	!	!	!	!	!	!	!	!	!	!	!	!	!	!	!	!	!	!	!	!LO:DY:b:t=for:rj	!	!	!	!	!	!
8D\L	.	X 4	16d\LL|	(16dd\LL	.	(16bb\LL	.	2D\	no-	.	2d\	no-	.	(4b\	no-	.	4gg\	no-	.	4g\	f	4b\	.	4gg\	.	4bb\	.
.	.	.	(16b\	16b\)	.	16gg\)	.	.	.	.	.	.	.	.	.	.	.	.	.	.	.	.	.	.	.	.	.
8D\	.	.	16g\	16dd'\	.	16bb'\	.	.	.	.	.	.	.	.	.	.	.	.	.	.	.	.	.	.	.	.	.
.	.	.	16b\JJ)	16dd'\JJ	.	16bb'\JJ	.	.	.	.	.	.	.	.	.	.	.	.	.	.	.	.	.	.	.	.	.
!	!	!	!LO:LB:g=original	!	!	!	!	!	!	!	!	!	!	!	!	!	!	!	!	!	!	!	!	!	!	!	!
8DD/	.	X 3	16d\LL|	(16cc\LL	.	(16aa\LL	.	.	.	.	.	.	.	4a\)	.	.	4ff#\	.	.	4d\	.	4a\	.	4ff#\	.	4aa\	.
.	.	.	(16cc\	16a\)	.	16ff#\)	.	.	.	.	.	.	.	.	.	.	.	.	.	.	.	.	.	.	.	.	.
8DD/J	.	.	16a\	16cc'\	.	16aa'\	.	.	.	.	.	.	.	.	.	.	.	.	.	.	.	.	.	.	.	.	.
.	.	.	16f#\JJ)	16cc'\JJ	.	16aa'\JJ	.	.	.	.	.	.	.	.	.	.	.	.	.	.	.	.	.	.	.	.	.
!	!	!	!	!	!	!LO:LB:g=original	!	!	!	!	!LO:LB:g=original	!	!	!	!	!	!	!	!	!	!	!	!	!	!	!	!
=50	=50	=50	=50	=50	=50	=50	=50	=50	=50	=50	=50	=50	=50	=50	=50	=50	=50	=50	=50	=50	=50	=50	=50	=50	=50	=50	=50
4GG/	.	.	8g\	8b'\L	.	8gg\L	.	8G\	-bis	.	8d\	-bis	.	8b\	-bis	.	8gg\	-bis	.	4B\	.	4g\	.	4gg\	.	4gg\	.
!	!	!	!	!	!	!	!LO:DY:b:t=piano	!	!	!	!	!	!	!	!	!	!	!	!	!	!	!	!	!	!	!	!
.	.	.	8r	(16b\L	.	(16ddd\L	p	8r	.	.	8r	.	.	8r	.	.	8r	.	.	.	.	.	.	.	.	.	.
.	.	.	.	16g\JJ)	.	16bb\JJ)	.	.	.	.	.	.	.	.	.	.	.	.	.	.	.	.	.	.	.	.	.
4r	.	.	4r	(16b\LL	.	(16ddd\LL	.	4r	.	.	4r	.	.	4r	.	.	4r	.	.	4r	.	4r	.	4r	.	4r	.
.	.	.	.	16g\)	.	16bb\)	.	.	.	.	.	.	.	.	.	.	.	.	.	.	.	.	.	.	.	.	.
.	.	.	.	(16b\	.	(16ddd\	.	.	.	.	.	.	.	.	.	.	.	.	.	.	.	.	.	.	.	.	.
.	.	.	.	16g\JJ)	.	16bb\JJ)	.	.	.	.	.	.	.	.	.	.	.	.	.	.	.	.	.	.	.	.	.
!	!	!	!	!	!	!	!LO:DY:b:t=forte&colon;	!	!	!	!	!	!	!	!	!	!	!	!	!	!	!	!	!	!	!	!
8r	.	.	8r	8b'\L	.	8ddd\L	f	8r	.	.	8r	.	.	8r	.	.	8r	.	.	8r	.	8r	.	8r	.	8r	.
8BB/	.	X 6	8d\	16b\L	.	(16gg\L	.	8BB/	pro	.	8d\	pro	.	8b\	pro	.	8gg\	pro	.	8g\	.	8b\	.	8b\	.	(16gg\LL	.
.	.	.	.	16g\JJ	.	16bb\JJ)	.	.	.	.	.	.	.	.	.	.	.	.	.	.	.	.	.	.	.	16bb\JJ)	.
8C/L	.	X 6	8e\L	(16cc\LL	.	(16aa\LL	.	8C/L	no-	.	4d\	no-	.	(8cc\L	no-	.	8aa\L	no-	.	4d\	.	4a\	.	4cc\	.	(16aa\LL	.
.	.	.	.	16a\)	.	16ccc\)	.	.	.	.	.	.	.	.	.	.	.	.	.	.	.	.	.	.	.	16ccc\)	.
8D/J	.	X 3	8d\J	(16a\	.	(16ff#\	.	8D/J	.	.	.	.	.	8a\J)	.	.	8ff#\J	.	.	.	.	.	.	.	.	(16ff#\	.
.	.	.	.	16cc\JJ)	.	16aa\JJ)	.	.	.	.	.	.	.	.	.	.	.	.	.	.	.	.	.	.	.	16aa\JJ)	.
!	!	!	!	!	!	!	!	!	!	!	!	!	!	!	!	!	!	!	!	!	!	!	!	!	!	!LO:LB:g=original	!
=51	=51	=51	=51	=51	=51	=51	=51	=51	=51	=51	=51	=51	=51	=51	=51	=51	=51	=51	=51	=51	=51	=51	=51	=51	=51	=51	=51
!LO:TX:t=P:problem=mixed beam	!	!	!	!	!	!	!	!	!	!	!	!	!	!	!	!	!	!	!	!LO:TX:t=P:problem=mixed beam	!	!	!	!	!	!	!
8G\L	.	X 3	8dL 8F#/	8b/L	.	8gg 8b 8d/	.	4G\	-bis	.	4d\	-bis	.	4b\	-bis	.	4gg\	-bis	.	8B\L	.	8g/L	.	8b\L	.	8gg\L	.
8D\	.	.	8d 8G/	8gg 8b 8d/	.	8bb 8b 8d/	.	.	.	.	.	.	.	.	.	.	.	.	.	8G/	.	8d/	.	8b\	.	8bb\	.
8GG/J	.	.	8dJ 8G/	8ggJ 8b 8d 8G/	.	8gg 8b 8d/	.	4r	.	.	4r	.	.	4r	.	.	4r	.	.	8G/J	.	8d/J	.	8b\J	.	8gg\J	.
!	!	!	!	!	!	!	!	!	!	!	!	!	!	!	!	!	!	!	!	!	!	!	!	!LO:N:vis=8.	!	!	!
8r	.	.	8r	8r	.	8r	.	.	.	.	.	.	.	.	.	.	.	.	.	8r	.	8r	.	8r	.	8r	.
2r	.	.	2r	2r	.	2r	.	2r	.	.	2r	.	.	2r	.	.	2r	.	.	2r	.	2r	.	2r	.	2r	.
==	==	==	==	==	==	==	==	==	==	==	==	==	==	==	==	==	==	==	==	==	==	==	==	==	==	==	==
*-	*-	*-	*-	*-	*-	*-	*-	*-	*-	*-	*-	*-	*-	*-	*-	*-	*-	*-	*-	*-	*-	*-	*-	*-	*-	*-	*-
!!!system-decoration: [(g1)][(g2)][(g3)][(g4)][(s12)]
!!!RDF**kern: | = vertical stroke
!!!RDF**kern: > = above
!!!RDF**kern: < = below
!!!ENC: Andrzej Gręziak
!!!END: 2020-10-21
!!!EED: Antoni Szymański
!!!EEV: 2022-04-04
